!!!COM: L van Beethoven
!!!OTL: String Quartet No15 Op 132
**kern	**dynam	**kern	**dynam	**kern	**dynam	**kern	**dynam	**mxhm
*part4	*part4	*part3	*part3	*part2	*part2	*part1	*part1	*part1
*staff4	*	*staff3	*	*staff2	*	*staff1	*	*
*I"Violoncello	*	*I"Viola	*	*I"Violin II	*	*I"Violin I	*	*
*I'Vc.	*	*I'Vla.	*	*I'Vln. II	*	*I'Vln. I	*	*
*clefF4	*	*clefC3	*	*clefG2	*	*clefG2	*	*
*k[]	*	*k[]	*	*k[]	*	*k[]	*	*
*M3/4	*	*M3/4	*	*M3/4	*	*M3/4	*	*
=1	=1	=1	=1	=1	=1	=1	=1	=1
!	!	!	!	!	!	!LO:TX:a:t=Allegro appassionato	!	!
([2AA	p	4r	.	8r	.	2.r	.	i
.	.	.	.	(8fn	p	.	.	.
.	.	2E 2c	p	2e)	.	.	.	.
8AAL]	<	.	.	.	.	.	.	.
8EJ)	[[	.	.	.	.	.	.	.
=2	=2	=2	=2	=2	=2	=2	=2	=2
([2BB	.	4r	.	8r	.	2.r	.	V43
.	.	.	.	(8f	.	.	.	.
.	.	2E 2d	.	2e)	.	.	.	.
8BBL]	.	.	.	.	.	.	.	.
8EJ)	.	.	.	.	.	.	.	.
=3	=3	=3	=3	=3	=3	=3	=3	=3
!	!	!	!	!LO:TX:a:t=espressivo	!	!	!	!
([2AA	.	4r	.	8r	.	(4.a	.	i
.	.	.	.	(8f	.	.	.	.
.	.	2E 2c	<[	2e)	<[	.	.	.
.	.	.	.	.	.	8eL	.	.
8AAL]	<	.	.	.	.	8cc	.	.
8EJ)	[[	.	.	.	.	8a'J)	.	.
=4	=4	=4	=4	=4	=4	=4	=4	=4
([2BB	.	4r	.	8r	.	(2a	.	V43(4+2)
.	.	.	.	(8f	.	.	.	.
.	.	2E 2d	<[	2e)	<[	.	.	.
8BBL]	<	.	.	.	.	4g#X)	.	V43
8EJ)	[[	.	.	.	.	.	.	.
=5	=5	=5	=5	=5	=5	=5	=5	=5
!LO:TX:b:i:t=cresc.	!	!	!	!	!	!LO:TX:b:i:t=cresc.	!	!
([2AA	.	4r	.	8r	.	(4.a	.	i
!	!	!	!	!LO:TX:b:i:t=cresc.	!	!	!	!
.	.	.	.	(8f	.	.	.	.
!	!	!LO:TX:b:i:t=cresc.	!	!	!	!	!	!
.	.	2E 2c	.	2e)	.	.	.	.
.	.	.	.	.	.	8bL	.	.
8AAL]	.	.	.	.	.	8cc	.	.
8EJ)	.	.	.	.	.	8ddJ	.	.
=6	=6	=6	=6	=6	=6	=6	=6	=6
([2GG#X	.	4r	.	8r	.	4ee')	.	V6(2)
.	.	.	.	(8f	.	.	.	.
.	.	2E 2B	.	2e)	.	(4ee'	.	V6
8GG#L]	.	.	.	.	.	4ee')	.	.
8EJ)	.	.	.	.	.	.	.	.
=7	=7	=7	=7	=7	=7	=7	=7	=7
([2GGn	.	4r	.	8r	.	2ee	.	V43/VI
.	.	.	.	(8f	.	.	.	.
.	.	2C 2B-X	.	2c) 2e	.	.	.	.
8GGL]	.	.	.	.	.	(4ee	.	.
8CJ)	.	.	.	.	.	.	.	.
=8	=8	=8	=8	=8	=8	=8	=8	=8
([2FF	>	4r	>	8r	>	4.gg	>	VI(+2)
.	.	.	.	8f	.	.	.	.
.	.	2C 2A	]]	2c 2f	]]	.	.	.
.	.	.	.	.	.	8ffL)	.	VI
8FFL]	.	.	.	.	.	(8ee'	.	.
8CJ)	]]	.	.	.	.	8dd'J)	]]	.
=9	=9	=9	=9	=9	=9	=9	=9	=9
([2GG	p	4r	.	8r	.	(2cc	p	V64/VI
.	.	.	.	(8f	p	.	.	.
.	.	2E 2c	p	2G) 2g	.	.	.	.
8GGL]	.	.	.	.	.	8eeL	.	.
8GJ)	.	.	.	.	.	8ddJ)	.	.
=10	=10	=10	=10	=10	=10	=10	=10	=10
([2GG	<	4r	.	8r	.	4dd	.	viio6(+7)/VI
.	.	.	.	(8a	<	.	.	.
.	.	((4.D 4.Bn	<	4g	.	4r	.	viio6/VI
8GGL]	.	.	.	8fL	[ >	8r	.	.
8AAJ)	>]	8C)) 8c	[ > ]]	8eJ)	]]	8r	.	i
=11	=11	=11	=11	=11	=11	=11	=11	=11
!	!LO:DY:a	!	!	!	!	!	!	!
([2AA	] p p	8r	.	8c 8e	p	(4.aa	p	.
.	.	8C 8c	.	(8ff	.	.	.	.
.	.	(8aL	.	2cc) 2ee	.	.	.	.
.	.	8e	.	.	.	8eeL	.	.
8AAL]	.	8cc)	.	.	.	8ccc)	.	.
8EJ)	.	8a'J	.	.	.	8aa'J	.	.
=12	=12	=12	=12	=12	=12	=12	=12	=12
!LO:TX:b:i:t=cresc.	!	!LO:TX:b:i:t=cresc.	!	!	!	!LO:TX:b:i:t=cresc.	!	!
([2BB	.	(2a	.	8r	.	(2aa	.	V43(4)
!	!	!	!	!LO:TX:b:i:t=cresc.	!	!	!	!
.	.	.	.	(8ff	.	.	.	.
.	.	.	.	2dd) 2ee	.	.	.	.
8BBL]	.	4g#X)	.	.	.	4gg#X)	.	V43
8EJ)	.	.	.	.	.	.	.	.
=13	=13	=13	=13	=13	=13	=13	=13	=13
([2AA	.	(4.a	.	8r	.	(4.aa	.	i
.	.	.	.	(8ff	.	.	.	.
.	.	.	.	2cc) 2ee	.	.	.	.
.	.	8bL	.	.	.	8bbL	.	.
8AAL]	.	8cc	.	.	.	8ccc	.	.
8EJ)	.	8ddJ	.	.	.	8dddJ	.	.
=14	=14	=14	=14	=14	=14	=14	=14	=14
([2GG#X	.	4ee')	.	8r	.	4eee')	.	V6(6)
.	.	.	.	(8cc	.	.	.	.
.	.	(4ee'	.	2b)	.	(4eee'	.	V6
8GG#L]	.	4ee')	.	.	.	4eee')	.	.
8EJ)	.	.	.	.	.	.	.	.
=15	=15	=15	=15	=15	=15	=15	=15	=15
([2GGn	.	4ee	.	8r	.	2eee	.	V43/VI
.	.	.	.	(8cc	.	.	.	.
.	.	2C 2c	.	2b-X)	.	.	.	.
8GGL]	.	.	.	.	.	(4eee	.	.
8CJ)	.	.	.	.	.	.	.	.
=16	=16	=16	=16	=16	=16	=16	=16	=16
([2FF	>	4r	>	8r	>	4.ggg	>	VI
.	.	.	.	(8b-X	.	.	.	.
.	.	2C 2c	]]	2a)	]]	.	.	.
.	.	.	.	.	.	8fffL)	.	.
8FFL]	.	.	.	.	.	(8eee'	.	.
8CJ)	]]	.	.	.	.	8ddd'J)	]]	.
=17	=17	=17	=17	=17	=17	=17	=17	=17
([2GG	p	4r	.	8r	.	(2ccc	p	V64/VI
.	.	.	.	(8a	p	.	.	.
.	.	2E 2c	p	2g)	.	.	.	.
8GGL]	.	.	.	.	.	8eeeL	.	.
8GJ)	.	.	.	.	.	8dddJ)	.	.
=18	=18	=18	=18	=18	=18	=18	=18	=18
([2GG	<	4r	.	8r	.	4ddd	.	viio6(+7)/VI
.	.	.	.	(8a	<	.	.	.
*	*	*^	*	*	*	*	*	*
.	.	(4.B	2D	> <	(4g	.	4r	.	viio6/VI
8GGL]	>	.	.	.	8gL)	[ >	4r	.	.
8DJ)	]]	8d)	.	.	8fJ)	]]	.	.	.
*	*	*v	*v	*	*	*	*	*	*
=19	=19	=19	=19	=19	=19	=19	=19	=19
([2DD	]	4r	[ [	8r	.	4r	.	iv
.	.	.	.	(8g	.	.	.	.
.	.	2F 2A	.	2f)	.	(4dd	.	.
8DDL]	.	.	.	.	.	4ff)	.	.
8DJ)	.	.	.	.	.	.	.	.
=20	=20	=20	=20	=20	=20	=20	=20	=20
!LO:TX:b:i:t=cresc.	!	!	!	!	!	!LO:TX:b:i:t=cresc.	!	!
([2C#X	.	4r	.	8r	.	2.aa	.	i6
!	!	!	!	!LO:TX:b:i:t=cresc.	!	!	!	!
.	.	.	.	(8ff	.	.	.	.
!	!	!LO:TX:b:i:t=cresc.	!	!	!	!	!	!
.	.	2E 2A	.	2ee)	.	.	.	.
8C#L]	.	.	.	.	.	.	.	.
8CnJ)	.	.	.	.	.	.	.	.
=21	=21	=21	=21	=21	=21	=21	=21	=21
([2EE	.	4r	.	8r	.	4r	.	v(4)
.	.	.	.	(8a	.	.	.	.
.	.	2E 2B	.	2g)	.	(4ee	.	v
8EEL]	.	.	.	.	.	4gg)	.	.
8EJ)	.	.	.	.	.	.	.	.
=22	=22	=22	=22	=22	=22	=22	=22	=22
([2D#X	.	4r	.	8r	.	[4bb	.	V6(+2)/V
.	.	.	.	(8cc	.	.	.	.
.	.	([4F#X	.	([4b)	.	4bb_	.	V6/V
8D#L]	.	8F#L]	.	8bL]	.	4bb]	.	#viio43
8DnJ)	.	8G#XJ)	.	8ffJ)	.	.	.	.
=23	=23	=23	=23	=23	=23	=23	=23	=23
([2C	.	4A	.	8r	.	4r	.	i6
.	.	.	.	(8ff	.	.	.	.
.	.	2E 2c	.	2ee)	.	(4aa	.	.
8CL]	.	.	.	.	.	4ccc)	.	.
8AAJ)	.	.	.	.	.	.	.	.
=24	=24	=24	=24	=24	=24	=24	=24	=24
([2GG#X	rfz	4r	.	8r	.	2eee	rfz	V65
.	.	.	.	(8ff	rfz	.	.	.
.	.	([4B [4d	rfz	2ee)	.	.	.	.
8GG#L]	.	8BL] 8d]	.	.	.	4eee	.	i
8AAJ)	.	8cJ)	.	.	.	.	.	.
=25	=25	=25	=25	=25	=25	=25	=25	=25
([2EE	>	4r	>	8r	>	(4.eee	>	V
.	.	.	.	(8a	.	.	.	.
.	.	2E 2B	]]	2g#X)	]]	.	.	.
.	.	.	.	.	.	8bbL	.	.
8EEL]	.	.	.	.	.	8ddd	.	V7
8EJ)	]]	.	.	.	.	8cccJ)	]]	.
=26	=26	=26	=26	=26	=26	=26	=26	=26
([2AA	p <	4r	]	8r	.	4aa	p	i
.	.	.	.	(8b	p <	.	.	.
*	*	*^	*	*	*	*	*	*
.	.	(8c	4.E	p <	8aL	.	4r	.	V7/iv
.	.	4c#X	.	[	8e	>	.	.	.
8AAL]	>	.	.	.	8gn	]	4r	.	iv
8DJ)	]]	8d)	8D	>	8fJ)	]]	.	.	.
*	*	*v	*v	*	*	*	*	*	*
=27	=27	=27	=27	=27	=27	=27	=27	=27
([2D	]	4r	]	8fL	.	4r	.	.
.	.	.	.	(8eeJ	.	.	.	.
.	.	(4d	.	2f) 2dd	.	(4dd	.	.
8DL]	.	4f)	.	.	.	4ff)	.	.
8AJ)	.	.	.	.	.	.	.	.
=28	=28	=28	=28	=28	=28	=28	=28	=28
!LO:TX:b:i:t=cresc.	!	!LO:TX:b:i:t=cresc.	!	!	!	!LO:TX:b:i:t=cresc.	!	!
([2C#X	.	2.a	.	8r	.	2.aa	.	i6
!	!	!	!	!LO:TX:b:i:t=cresc.	!	!	!	!
.	.	.	.	(8f	.	.	.	.
.	.	.	.	2e)	.	.	.	.
8C#L]	.	.	.	.	.	.	.	.
8CnJ)	.	.	.	.	.	.	.	.
=29	=29	=29	=29	=29	=29	=29	=29	=29
([2E	.	4r	.	8r	.	4r	.	v(4)
.	.	.	.	(8a	.	.	.	.
.	.	(4e	.	2B) 2g	.	(4ee	.	v
8EL]	.	4g)	.	.	.	4gg)	.	.
8BJ)	.	.	.	.	.	.	.	.
=30	=30	=30	=30	=30	=30	=30	=30	=30
([2D#X	.	(2b	.	8r	.	2.bb	.	#viio43
.	.	.	.	(8g	.	.	.	.
.	.	.	.	4f#X	.	.	.	.
8D#L]	.	8f#XL	.	8ff#XL	.	.	.	.
8DnJ)	.	8g#XJ	.	8ffnJ	.	.	.	.
=31	=31	=31	=31	=31	=31	=31	=31	=31
([2C	.	4a')	.	8eeL)	.	4r	.	i6
.	.	.	.	(8ffJ	.	.	.	.
.	.	(4a	.	2ee)	.	(4aa	.	.
8CL]	.	4cc)	.	.	.	4ccc)	.	.
8AAJ)	.	.	.	.	.	.	.	.
=32	=32	=32	=32	=32	=32	=32	=32	=32
*	*	*	*	*^	*	*	*	*
([2GG#X	rfz	2ee	rfz	8r	4r	.	2eee	rfz	V6
.	.	.	.	(8f	.	rfz	.	.	.
.	.	.	.	2e)	4B	.	.	.	.
8GG#L]	.	4ee	.	.	4c	.	4eee	.	i
8AAJ)	.	.	.	.	.	.	.	.	.
*	*	*	*	*v	*v	*	*	*	*
=33	=33	=33	=33	=33	=33	=33	=33	=33
([2EE	>	(4.ee	>	8r	>	(4.eee	>	V
.	.	.	.	(8a	.	.	.	.
.	.	.	.	2B) 2g#X	]]	.	.	.
.	.	8bL	.	.	.	8bbL	.	.
8EEL]	.	8dd	.	.	.	8ddd	.	V7
8EJ)	]]	8ccJ)	]]	.	.	8cccJ)	]]	.
=34	=34	=34	=34	=34	=34	=34	=34	=34
4AA	p	8a	p	8c	p	4aa'	p	i
.	.	(8D#XL	f	(8d#XL	f	.	.	.
4r	.	8EJ)	.	8eJ)	.	4r	.	.
.	.	(8D#L	.	(8d#L	.	.	.	.
4r	.	8EJ)	.	8eJ)	.	4r	.	.
.	.	8E	.	8e	.	.	.	.
=35	=35	=35	=35	=35	=35	=35	=35	=35
[2AA	>	[2.E	>]	[2.e	>]	(4.fff	>	i(+6)
.	.	.	.	.	.	8cccL	.	.
8AAL]	.	.	.	.	.	8eee	.	i
8EJ	]]	.	.	.	.	8dddJ)	]]	.
=36	=36	=36	=36	=36	=36	=36	=36	=36
4GG#X	p	8E]	p	8e]	p	4bb'	p	V6
.	.	(8D#XL	f	(8d#XL	f	.	.	.
4r	.	8EJ)	.	8eJ)	.	4r	.	.
.	.	(8D#L	.	(8d#L	.	.	.	.
4r	.	8EJ)	.	8eJ)	.	4r	.	.
.	.	8E	.	8e	.	.	.	.
=37	=37	=37	=37	=37	=37	=37	=37	=37
[2GG#X	>	[2.E	>]	[2.e	>]	(4.eee	>	V6
.	.	.	.	.	.	8bbL	.	.
8GG#L]	.	.	.	.	.	8ddd	.	V65
8EJ	]]	.	.	.	.	8cccJ)	]]	.
=38	=38	=38	=38	=38	=38	=38	=38	=38
4AA	p	8E]	p	8e]	p	4aa'	p	i
.	.	(8D#XL	.	(8d#XL	f	.	.	.
!	!LO:DY:a	!	!	!	!	!	!	!
4r	f	8EJ)	.	8eJ)	.	4r	.	.
.	.	(8D#L	.	(8d#L	.	.	.	.
4r	.	8EJ)	.	8eJ)	.	4r	.	.
.	.	8E	.	8e	.	.	.	.
=39	=39	=39	=39	=39	=39	=39	=39	=39
([2AA	f	2.E	f	2.e	f	(4.fff	f	i(+6)
.	.	.	.	.	.	8cccL	.	.
8AAL]	.	.	.	.	.	8eee	.	i
8EJ)	.	.	.	.	.	8dddJ)	.	.
=40	=40	=40	=40	=40	=40	=40	=40	=40
8GG#X	f	8E 8B	f	8e	f	8bb	f	V6
8r	.	8r	.	8r	.	8r	.	.
8G#X	.	8b	.	8ee	.	8bb	.	.
8r	.	8r	.	8r	.	8r	.	.
8A	.	8e	.	8cc 8ee	.	8ccc	.	i
8r	.	8r	.	8r	.	8r	.	.
=41	=41	=41	=41	=41	=41	=41	=41	=41
8Dn	.	8a	.	8ff	.	8ddd	.	iv
8r	.	8r	.	8r	.	8r	.	.
8E	.	8e	.	8a	.	8ccc	.	V(64)
8r	.	8r	.	8r	.	8r	.	.
8E	.	8E	.	8g#X	.	8bb	.	V
8r	.	8r	.	8r	.	8r	.	.
=42	=42	=42	=42	=42	=42	=42	=42	=42
4AA	.	8A	.	8cc 8ee	.	8aa	.	i\\
.	.	(8aL	f	(8ffL	f	(8ddd#XL	f	.It6
4r	.	8g#XJ)	.	8eeJ)	.	8eeeJ)	.	V6
.	.	(8aL	.	(8ffL	.	(8ddd#L	.	.It6
4r	.	8g#J)	.	8eeJ)	.	8eeeJ)	.	V6
.	.	8c 8a	.	8ee	.	8eee	.	i6
=43	=43	=43	=43	=43	=43	=43	=43	=43
(4.F	>	2.c 2.a	>]	[2.ee	>]	[2.eee	>]	VIM7
8CL	.	.	.	.	.	.	.	.
8E	.	.	.	.	.	.	.	.
8DJ)	]]	.	.	.	.	.	.	.
=44	=44	=44	=44	=44	=44	=44	=44	=44
4BB	p	8g#X 8b	p	8ee]	p	8eee]	p	V64
.	.	(8aL	f	(8ffL	f	(8ddd#XL	f	.It6
4r	.	8g#J)	.	8eeJ)	.	8eeeJ)	.	V6
.	.	(8aL	.	(8ffL	.	(8ddd#L	.	.It6
4r	.	8g#J)	.	8eeJ)	.	8eeeJ)	.	V6
.	.	8g#	.	8b	.	8eee	.	.
=45	=45	=45	=45	=45	=45	=45	=45	=45
(4.E	>	2.g#X	>]	[2.ee	>]	[2.eee	>]	V
8BBL	.	.	.	.	.	.	.	.
8D	.	.	.	.	.	.	.	.
8CJ)	]]	.	.	.	.	.	.	.
=46	=46	=46	=46	=46	=46	=46	=46	=46
8AA	p	8cc	p	8ee]	p	8eee]	p	i
(8AL	f	(8fL	f	(8cL	f	(8ddd#XL	f	.Ger6
8G#XJ)	.	8eJ)	.	8BJ)	.	8eeeJ)	.	V6
(8AL	.	(8fL	.	(8cL	.	(8ddd#L	.	.Ger6
8G#J)	.	8eJ)	.	8BJ)	.	8eeeJ)	.	V6
8A	.	8e	.	8c	.	8eee	.	i
=47	=47	=47	=47	=47	=47	=47	=47	=47
([2G#X	sf	8e	sf	8B	sf	(4.eee	sf	V6
.	.	(8fL	.	(8ffL	.	.	.	.
.	.	8eJ)	.	8eeJ)	.	.	.	.
.	.	(8fL	.	(8ffL	.	8bbL	.	.
8G#L]	.	8eJ)	.	8eeJ)	.	8dddn	.	V65
8AJ)	.	8e	.	8ee	.	8cccJ)	.	i
=48	=48	=48	=48	=48	=48	=48	=48	=48
8A	.	8c 8e	.	8ee	.	8aa	.	VII.ii
8r	.	8r	.	8r	.	8r	.	.
8D	.	8c	.	8ff#X	.	8aa	.	V7
8r	.	8r	.	8r	.	8r	.	.
8Gn	.	8B 8d	.	8b 8ggn	.	8bb	.	I
8r	.	8r	.	8r	.	8r	.	.
=49	=49	=49	=49	=49	=49	=49	=49	=49
8C	.	8Gn 8en	.	8gg	.	8ccc	.	IV
8r	.	8r	.	8r	.	8r	.	.
8D	.	8G 8d	.	8gg	.	8bb	.	V(64)
8r	.	8r	.	8r	.	8r	.	.
8D	.	8d 8dd	.	8a 8ff#X	.	8aa	.	V
8r	.	8r	.	8r	.	8r	.	.
=50	=50	=50	=50	=50	=50	=50	=50	=50
8G	.	8d 8dd	.	8b 8gg	.	8ggn	.	I\\
8r	.	8r	.	8r	.	8r	.	.
4r	.	8G	p	8B	p	4r	.	I
.	.	8r	.	8r	.	.	.	.
4r	.	8A	.	8c	.	4r	.	.
.	.	8r	.	8r	.	.	.	.
=51	=51	=51	=51	=51	=51	=51	=51	=51
4r	.	8B	.	8d	.	4r	.	.
.	.	8r	.	8r	.	.	.	.
8g	p	8A	.	8c	.	8bb	p	@none
8r	.	8r	.	8r	.	8r	.	.
8a	.	8G	.	8B	.	8ccc	.	.
8r	.	8r	.	8r	.	8r	.	.
=52	=52	=52	=52	=52	=52	=52	=52	=52
8b	.	8G	.	8BL	.	(2ddd	.	I
8r	.	8r	.	(8dd	.	.	.	.
4r	.	4r	.	8ee	.	.	.	.
.	.	.	.	8cc#XJ	.	.	.	.
4r	.	(8BL	.	8dd)	.	4ggT	.	I6
.	.	8bJ)	.	8r	.	.	.	.
.	.	.	.	.	.	16qqff#X/LL	.	.
.	.	.	.	.	.	16qqgg/JJ	.	.
=53	=53	=53	=53	=53	=53	=53	=53	=53
2.r	.	(8bL	.	8r	.	4ff#X)	.	viio6
.	.	8aJ)	.	(8ccnL	.	.	.	.
.	.	4r	.	8dd	.	4r	.	.
.	.	.	.	8bJ	.	.	.	.
.	.	(8AL	.	8cc)	.	4ff#t	.	.
.	.	8aJ)	.	8r	.	.	.	.
.	.	.	.	.	.	16qqee/LL	.	.
.	.	.	.	.	.	16qqff#/JJ	.	.
=54	=54	=54	=54	=54	=54	=54	=54	=54
2.r	.	(8aL	.	8r	.	(2bb	.	I
.	.	8gJ)	.	(8bL	.	.	.	.
.	.	4r	.	8cc	.	.	.	.
.	.	.	.	8aJ	.	.	.	.
.	.	(8GL	.	8b)	.	4eet	.	.
.	.	8gJ)	.	8r	.	.	.	.
.	.	.	.	.	.	16qqdd/LL	.	.
.	.	.	.	.	.	16qqee/JJ	.	.
=55	=55	=55	=55	=55	=55	=55	=55	=55
2.r	.	(8gL	.	8r	.	4dd)	.	V6
.	.	8f#XJ)	.	(8aL	.	.	.	.
.	.	4r	.	8b	.	4r	.	.
.	.	.	.	8g#XJ)	.	.	.	.
.	.	(8f#L	.	(8aL	.	(4ddT	.	#viio64/IV
.	.	8fnJ	.	8bJ	.	.	.	.
.	.	.	.	.	.	16qqcc/LL	.	.
.	.	.	.	.	.	16qqdd/JJ	.	.
=56	=56	=56	=56	=56	=56	=56	=56	=56
2.r	.	4e)	.	8ccL	.	4gg')	.	IV6
.	.	.	.	8gn	.	.	.	.
.	.	4E	.	8a	.	(4ccT	.	vii%2
.	.	.	.	8f#X	.	.	.	.
.	.	(8DL	.	8g	.	4b)	.	V43
.	.	8dJ)	.	8fnJ)	.	.	.	.
=57	=57	=57	=57	=57	=57	=57	=57	=57
4r	.	(8CL	.	(8eL	.	(4aT	.	viio64
.	.	8cJ	.	8f#X	.	.	.	.
4r	.	8BL	.	8d	.	4g')	.	IV
.	.	8c	.	8e	.	.	.	.
(4GG	.	8A	.	8f#	.	(4b	.	I
.	.	[8GJ)	.	[8gJ)	.	.	.	.
=58	=58	=58	=58	=58	=58	=58	=58	=58
2.C	<[	(8GL]	<	(8gL]	<	2a	<	ii65
.	.	8F#X	.	8f#X	.	.	.	.
.	.	8G	.	8g	.	.	.	.
.	.	8E	.	8e	.	.	.	.
.	.	8F#	.	8f#	.	4ee	[[	v.iv65
.	.	8GJ)	[[	8gJ)	[[	.	.	.
=59	=59	=59	=59	=59	=59	=59	=59	=59
2BB)	p	2B	p	2b	p	2dd#X)	p	V
*clefC4	*	*	*	*	*	*	*	*
(4B	<	4E 4G	<	(4b	<	(4gg'	<	V(64)
=60	=60	=60	=60	=60	=60	=60	=60	=60
2A	.	2C 2c	.	2a	.	2gg'	.	iv7
4e	[[	4C 4c	[[	4ee	[[	4gg')	[[	VI
=61	=61	=61	=61	=61	=61	=61	=61	=61
2d#X)	>	2B	>	2dd#X)	>	2gg	>	V(6)
!LO:TX:a:i:t=cresc.	!	!LO:TX:b:i:t=cresc.	!	!LO:TX:b:i:t=cresc.	!	!LO:TX:b:i:t=cresc.	!	!
[4e	]	[4C [4c	]	[4ee	]	(8ggL	]	VIM7
.	.	.	.	.	.	8bbJ	.	.
=62	=62	=62	=62	=62	=62	=62	=62	=62
2e]	.	2C] 2c]	.	2ee]	.	2aa	.	i6
(4e	.	[4C [4g	.	4ee	.	4eee	.	VI
=63	=63	=63	=63	=63	=63	=63	=63	=63
2fn)	.	2C] 2g]	.	2ffn	.	2ddd#X)	.	@none
(8eL	ff	[4C [4c	f	[4g [4ee	f	[4eee	f	VI
8gJ	.	.	.	.	.	.	.	.
=64	=64	=64	=64	=64	=64	=64	=64	=64
8f#XL	.	4.C] 4.c]	.	4.g] 4.ee]	.	4.eee]	.	.
8g	.	.	.	.	.	.	.	.
8eJ)	.	.	.	.	.	.	.	.
8r	.	8r	.	8r	.	8r	.	.
!LO:TX:b:i:t=sempre ff	!	!	!	!	!	!	!	!
(8eL	.	[4B [4e	sf	[4ee [4gg	sf	[4eee	sf	i64
8gJ	.	.	.	.	.	.	.	.
=65	=65	=65	=65	=65	=65	=65	=65	=65
8f#XL	.	4.B] 4.e]	.	4.ee] 4.gg]	.	4.eee]	.	.
8g	.	.	.	.	.	.	.	.
8eJ)	.	.	.	.	.	.	.	.
8r	.	8r	.	8r	.	8r	.	.
(8eL	.	[4A [4e	sf	[4cc [4aa	sf	[4eee	sf	iv
8gJ	.	.	.	.	.	.	.	.
=66	=66	=66	=66	=66	=66	=66	=66	=66
8f#XL	.	4.A] 4.e]	.	4.cc] 4.aa]	.	4.eee]	.	.
8g	.	.	.	.	.	.	.	.
8eJ)	.	.	.	.	.	.	.	.
8r	.	8r	.	8r	.	8r	.	.
8eL	.	[4G [4e	sf	[4b [4bb	sf	[4eee	sf	i6
8gJ	.	.	.	.	.	.	.	.
=67	=67	=67	=67	=67	=67	=67	=67	=67
8f#XL	.	4.G] 4.e]	.	4.b] 4.bb]	.	4.eee]	.	.
8g	.	.	.	.	.	.	.	.
8eJ	.	.	.	.	.	.	.	.
8r	.	8r	.	8r	.	8r	.	.
4r	.	4r	.	4r	.	(4ddd#X	p	.
=68	=68	=68	=68	=68	=68	=68	=68	=68
8r	.	2.r	.	2.r	.	2.eee	.	i6
(8GGL	p	.	.	.	.	.	.	.
8BB	.	.	.	.	.	.	.	.
8E	.	.	.	.	.	.	.	.
8F#X	.	.	.	.	.	.	.	.
8GJ	.	.	.	.	.	.	.	.
=69	=69	=69	=69	=69	=69	=69	=69	=69
8G#XL	.	(8BL	p	2.r	.	4ccc	.	iv
8AJ)	.	8c	.	.	.	.	.	.
4r	.	8e	.	.	.	4aa)	.	.
.	.	8fn	.	.	.	.	.	.
4r	.	8g#X	.	.	.	4ffn'	.	viio7
.	.	8aJ	.	.	.	.	.	.
=70	=70	=70	=70	=70	=70	=70	=70	=70
(8A#XL	.	8f#XL	.	4r	.	(2.ee	.	i64
8BJ)	.	8gnJ)	.	.	.	.	.	.
4r	.	4r	.	(8a#XL	p	.	.	.
.	.	.	.	8b	.	.	.	.
4r	.	(8gL	.	8ee	.	.	.	.
.	.	8bJ	.	8ggJ	.	.	.	.
=71	=71	=71	=71	=71	=71	=71	=71	=71
4r	.	8f#XL	.	8aanL	.	4dd#X	.	#viio6
.	.	8a	.	8ccc	.	.	.	.
4r	.	8g	.	8bb	.	4bb)	.	i6
.	.	8f#J)	.	8aaJ)	.	.	.	.
(8eL	ff	[4C [4c	ff	[4ee [4gg	ff	[4eee	ff	VI
8gJ	.	.	.	.	.	.	.	.
=72	=72	=72	=72	=72	=72	=72	=72	=72
8f#XL	.	4.C] 4.c]	.	4.ee] 4.gg]	.	4.eee]	.	.
8g	.	.	.	.	.	.	.	.
8eJ)	.	.	.	.	.	.	.	.
8r	.	8r	.	8r	.	8r	.	.
!LO:TX:b:i:t=sempre ff	!	!	!	!	!	!	!	!
(8eL	.	[4B	sf	[4g [4ee	sf	[4ggg	sf	i64
8gJ	.	.	.	.	.	.	.	.
=73	=73	=73	=73	=73	=73	=73	=73	=73
8f#XL	.	4.B]	.	4.g] 4.ee]	.	4.ggg]	.	.
8g	.	.	.	.	.	.	.	.
8eJ)	.	.	.	.	.	.	.	.
8r	.	8r	.	8r	.	8r	.	.
(8eL	.	[4A [4e	sf	[4cc [4ee	sf	[4aaa	sf	iv
8gJ	.	.	.	.	.	.	.	.
=74	=74	=74	=74	=74	=74	=74	=74	=74
8f#XL	.	4.A] 4.e]	.	4.cc] 4.ee]	.	4.aaa]	.	.
8g	.	.	.	.	.	.	.	.
8eJ)	.	.	.	.	.	.	.	.
8r	.	8r	.	8r	.	8r	.	.
(8eL	.	[4G [4g	sf	[4b [4ee	sf	[4bbb	sf	i6
8gJ	.	.	.	.	.	.	.	.
=75	=75	=75	=75	=75	=75	=75	=75	=75
8f#XL	.	4.G] 4.g]	.	4.b] 4.ee]	.	4.bbb]	.	.
8gJ	.	.	.	.	.	.	.	.
4e)	.	.	.	.	.	.	.	.
.	.	8r	.	8r	.	8r	.	.
*clefF4	*	*	*	*	*	*	*	*
([4CC	p	4r	.	4r	.	(4ee	p	VI
=76	=76	=76	=76	=76	=76	=76	=76	=76
8CCL]	.	2.r	.	2.r	.	2.eee)	.	.
8EE	.	.	.	.	.	.	.	.
8GG	.	.	.	.	.	.	.	.
8BB	.	.	.	.	.	.	.	.
8C	.	.	.	.	.	.	.	.
8EJ)	.	.	.	.	.	.	.	.
=77	=77	=77	=77	=77	=77	=77	=77	=77
(8EL	.	(8G#XL	p	2.r	.	(4ccc	.	II
8Fn	.	8A	.	.	.	.	.	.
8G#X	.	8B	.	.	.	4aa)	.	.
8AJ)	.	8c	.	.	.	.	.	.
4r	.	8e	.	.	.	4ffn'	.	.
.	.	8fnJ)	.	.	.	.	.	.
=78	=78	=78	=78	=78	=78	=78	=78	=78
2.r	.	2.f	.	2.ff	p	(8cc#XL	.	III.ii6
.	.	.	.	.	.	8dd	.	.
.	.	.	.	.	.	8ee	.	.
.	.	.	.	.	.	8ff	.	.
.	.	.	.	.	.	8gg#X	.	.
.	.	.	.	.	.	8aaJ	.	.
=79	=79	=79	=79	=79	=79	=79	=79	=79
4r	.	(4d	.	(4dd	.	8bbL	.	viio6
.	.	.	.	.	.	8cccnJ	.	.
4r	.	4B)	.	4b)	.	8dddL	.	viio
.	.	.	.	.	.	8eeeJ	.	.
(8BBL	.	4Gn'	.	(8gL	.	8fffL	.	.
8AAJ	.	.	.	8cJ	.	8fff#XJ)	.	viio6/V
=80	=80	=80	=80	=80	=80	=80	=80	=80
!LO:TX:b:i:t=cresc.	!	!LO:TX:b:i:t=cresc.	!	!LO:TX:b:i:t=cresc.	!	!LO:TX:a:i:t=cresc.	!	!
8FF#XL	.	2.G	.	8A#XL	.	2.ggg	.	V
8GG	.	.	.	8B	.	.	.	.
8AA#X	.	.	.	8c#X	.	.	.	.
8BB	.	.	.	8d	.	.	.	.
8C#X	.	.	.	8e	.	.	.	.
8DJ)	.	.	.	8fJ)	.	.	.	.
=81	=81	=81	=81	=81	=81	=81	=81	=81
(8BBL	.	(8DL	.	4G'	.	(4eee	.	I
8Cn	.	8E	.	.	.	.	.	.
8D	.	8F	.	4g'	.	4ccc)	.	.
8C	.	8E	.	.	.	.	.	.
8D	.	8F	.	4g'	.	4bb	.	iii
8EJ)	.	8GJ)	.	.	.	.	.	.
=82	=82	=82	=82	=82	=82	=82	=82	=82
!LO:TX:b:i:t=dim.	!	!LO:TX:b:i:t=dim.	!	!LO:TX:b:i:t=dim.	!	!LO:TX:b:i:t=dim.	!	!
[2.Fn	.	[2.A	.	(8cnL	.	(4aa	.	IV
.	.	.	.	8an	.	.	.	.
.	.	.	.	8b	.	4ffn	.	.
.	.	.	.	8a	.	.	.	.
.	.	.	.	8b	.	4ee	.	.
.	.	.	.	8ccJ	.	.	.	.
=83	=83	=83	=83	=83	=83	=83	=83	=83
(4F]	.	(4A]	.	4a	.	4dd#X	.	i.It6
[2E)	p	4B)	.	4g#X	.	4ee	.	V
.	.	4B	p	4d)	p	4g#X	p	V7
=84	=84	=84	=84	=84	=84	=84	=84	=84
!LO:TX:b:i:t=piu p	!	!LO:TX:b:i:t=piu p	!	!LO:TX:b:i:t=piu p	!	!LO:TX:b:i:t=piu p	!	!
4E]	.	4A	.	4c	.	4a	.	V(64)
[2E	.	[2A	.	[2c	.	4ff	.	.
.	.	.	.	.	.	4ee	.	.
=85	=85	=85	=85	=85	=85	=85	=85	=85
4E]	.	(4A]	.	(4c]	.	4dd#X	.	.
(4E	.	4G#X	.	4B	.	4ee	.	V
4D	pp	4B	pp	[4e	pp	4g#X	pp	V2
=86	=86	=86	=86	=86	=86	=86	=86	=86
4C#X	.	4B-X	.	4e]	.	4gn	.	#viio7/ii
4D	.	4A	.	4d	.	4f#X	.	IV
4Cn	.	[4A-X	.	4fn	.	4ddn	.	ii%2/III
=87	=87	=87	=87	=87	=87	=87	=87	=87
4BB	.	4A-]	.	4d	.	4fn	.	viio7/III
4C	.	[2Gn	.	4c	.	4e	.	III
4BB	.	.	.	4e	.	4cc	.	IIIM2
=88	=88	=88	=88	=88	=88	=88	=88	=88
4AA	.	4G]	.	4c	.	4e	.	i7
4BB	.	2F)	.	4B	.	4d	.	iio
4AA	.	.	.	[4d	.	[4b	.	ii%2
=89	=89	=89	=89	=89	=89	=89	=89	=89
4GG#X	.	(2E	.	4d]	.	4b]	.	V65
4AA	.	.	.	4c	.	4a	.	i
4EE)	.	4Bn)	.	4d)	.	4g#X)	.	V7
=90	=90	=90	=90	=90	=90	=90	=90	=90
([2AA	p <	4r	<	8r	<	2.r	.	i
.	.	.	.	(8f	p	.	.	.
.	.	2E 2c	p [[	2e)	[[	.	.	.
8AAL]	.	.	.	.	.	.	.	.
8EJ)	[[	.	.	.	.	.	.	.
=91	=91	=91	=91	=91	=91	=91	=91	=91
([2BB	<	4r	<	8r	<	2.r	.	V43
.	.	.	.	(8f	.	.	.	.
.	.	2E 2d	[[	2e)	[[	.	.	.
8BBL]	.	.	.	.	.	.	.	.
8EJ)	[[	.	.	.	.	.	.	.
=92	=92	=92	=92	=92	=92	=92	=92	=92
!	!	!	!	!	!	!LO:TX:b:t=p	!	!
([2AA	<	4r	<	8r	<	(4.a	.	i
.	.	.	.	(8f	.	.	.	.
.	.	2E 2c	[[	2e)	[[	.	.	.
.	.	.	.	.	.	8eL	.	.
8AAL]	.	.	.	.	.	8cc	.	.
8EJ)	[[	.	.	.	.	8a'J)	.	.
=93	=93	=93	=93	=93	=93	=93	=93	=93
([2BB	<	4r	<	8r	<	(2a	.	V43(4)
.	.	.	.	(8f	.	.	.	.
.	.	2E 2d	[[	2e)	[[	.	.	.
8BBL]	.	.	.	.	.	4g#X)	.	V43
8EJ)	[[	.	.	.	.	.	.	.
=94	=94	=94	=94	=94	=94	=94	=94	=94
!LO:TX:b:i:t=cresc.	!	!	!	!	!	!LO:TX:b:i:t=cresc.	!	!
([2AA	.	4r	.	8r	.	(4.a	.	i
!	!	!	!	!LO:TX:b:i:t=cresc.	!	!	!	!
.	.	.	.	(8f	.	.	.	.
!	!	!LO:TX:b:i:t=cresc.	!	!	!	!	!	!
.	.	2E 2c	.	2e)	.	.	.	.
.	.	.	.	.	.	8bL	.	.
8AAL]	.	.	.	.	.	8cc	.	.
8EJ)	.	.	.	.	.	8ddJ	.	.
=95	=95	=95	=95	=95	=95	=95	=95	=95
([2GG#X	.	4r	.	8r	.	4ee')	.	V6(+2)
.	.	.	.	(8f	.	.	.	.
.	.	2E 2B	.	2e)	.	(4ee'	.	V6
8GG#L]	.	.	.	.	.	4ee')	.	.
8EJ)	.	.	.	.	.	.	.	.
=96	=96	=96	=96	=96	=96	=96	=96	=96
([2GGn	.	4r	.	8r	.	2ee	.	V43/VI
.	.	.	.	(8f	.	.	.	.
.	.	2C 2B-X	.	2e)	.	.	.	.
8GGL]	.	.	.	.	.	(4ee	.	.
8CJ)	.	.	.	.	.	.	.	.
=97	=97	=97	=97	=97	=97	=97	=97	=97
([2FF	>	4r	>	8r	>	4.gg	>	VI(+2)
.	.	.	.	(8b-X	.	.	.	.
.	.	2C 2c	]]	2a)	]]	.	.	.
.	.	.	.	.	.	8ffL)	.	VI
8FFL]	.	.	.	.	.	(8ee'	.	.
8CJ)	]]	.	.	.	.	8dd'J)	]]	.
=98	=98	=98	=98	=98	=98	=98	=98	=98
([2GG	p	4r	.	8r	.	(2cc	p	V64/VI
.	.	.	.	(8a	p	.	.	.
.	.	2E 2c	p	2g)	.	.	.	.
8GGL]	.	.	.	.	.	8eeL	.	.
8GJ)	.	.	.	.	.	8ccJ)	.	.
=99	=99	=99	=99	=99	=99	=99	=99	=99
([2GG	<	4r	.	8r	.	4dd	.	V/III
.	.	.	.	(8a	<	.	.	.
.	.	(4.D 4.Bn	<	4g	.	4r	.	.
8GGL]	>	.	.	8fL	[ >	8r	.	.
8AAJ)	]]	8C) 8c	[ > ]]	8eJ)	]]	8r	.	i
=100	=100	=100	=100	=100	=100	=100	=100	=100
([2AA	]	(4.a	.	8c 8e	.	(4.aa	.	.
.	.	.	.	(8ff	.	.	.	.
.	.	.	.	2cc) 2ee	.	.	.	.
.	.	8eL	.	.	.	8eeL	.	.
8AAL]	.	8cc	.	.	.	8ccc	.	.
8EJ)	.	8a'J)	.	.	.	8aa'J)	.	.
=101	=101	=101	=101	=101	=101	=101	=101	=101
!LO:TX:b:i:t=cresc.	!	!LO:TX:b:i:t=cresc.	!	!	!	!LO:TX:b:i:t=cresc.	!	!
([2BB	.	(2a	.	8r	.	(2aa	.	V43(4)
!	!	!	!	!LO:TX:b:i:t=cresc.	!	!	!	!
.	.	.	.	(8ff	.	.	.	.
.	.	.	.	2dd) 2ee	.	.	.	.
8BBL]	.	4g#X)	.	.	.	4gg#X)	.	V43
8EJ)	.	.	.	.	.	.	.	.
=102	=102	=102	=102	=102	=102	=102	=102	=102
([2AA	.	(4.a	.	8r	.	(4.aa	.	i
.	.	.	.	(8ff	.	.	.	.
.	.	.	.	2cc) 2ee	.	.	.	.
.	.	8bL	.	.	.	8bbL	.	.
8AAL]	.	8cc	.	.	.	8ccc	.	.
8EJ)	.	8ddJ	.	.	.	8dddJ	.	.
=103	=103	=103	=103	=103	=103	=103	=103	=103
([2GG#X	.	4ee')	.	8r	.	4eee')	.	V6
.	.	.	.	(8f	.	.	.	.
.	.	(4ee'	.	2B) 2e	.	4eee'	.	.
8GG#L]	.	4ee')	.	.	.	4eee'	.	.
8EJ)	.	.	.	.	.	.	.	.
=104	=104	=104	=104	=104	=104	=104	=104	=104
([2GGn	.	2ee	.	8r	.	2eee	.	viio6/VI
.	.	.	.	(8f	.	.	.	.
.	.	.	.	4B-X 4e	.	.	.	.
8GGL]	.	4ee	.	4b-X)	.	(4eee	.	.
8CJ)	.	.	.	.	.	.	.	.
=105	=105	=105	=105	=105	=105	=105	=105	=105
([2FF	>	4r	>	8r	>	4.ggg	>	VI(+2)
.	.	.	.	(8b-X	.	.	.	.
.	.	2C 2c	]]	4a	.	.	.	.
.	.	.	.	.	.	8fff)	.	VI
8FFL]	.	.	.	4aa)	]]	8eee'L	.	.
8CCJ)	]]	.	.	.	.	8ddd'J	]]	.
=106	=106	=106	=106	=106	=106	=106	=106	=106
([2GG	p	4r	.	8r	.	(2ccc	p	III64
.	.	.	.	(8aa	p	.	.	.
.	.	2E 2c	p	2gg)	.	.	.	.
8GGL]	.	.	.	.	.	8eeeL	.	.
8GJ)	.	.	.	.	.	8dddJ)	.	.
=107	=107	=107	=107	=107	=107	=107	=107	=107
([2GG	<	4r	<	8r	.	4ddd	.	V/III
.	.	.	.	(8aa	.	.	.	.
*	*	*^	*	*	*	*	*	*
.	.	(4.B	2D	[ >	4gg	.	4r	.	.
8GGL]	[ >	.	.	.	8gL	.	8r	.	.
8DJ)	]]	8d)	.	.	8fJ)	.	8r	.	iv
*	*	*v	*v	*	*	*	*	*	*
=108	=108	=108	=108	=108	=108	=108	=108	=108
([2DD	.	4r	]	8r	.	4r	.	.
.	.	.	.	(8g	.	.	.	.
.	.	2F 2A	.	2f)	.	(4dd	.	.
8DDL]	.	.	.	.	.	4ff)	.	.
8DJ)	.	.	.	.	.	.	.	.
=109	=109	=109	=109	=109	=109	=109	=109	=109
!LO:TX:b:i:t=cresc.	!	!	!	!	!	!LO:TX:b:i:t=cresc.	!	!
([2C#X	.	4r	.	8r	.	2.aa	.	V6/iv
!	!	!	!	!LO:TX:b:i:t=cresc.	!	!	!	!
.	.	.	.	(8ff	.	.	.	.
!	!	!LO:TX:b:i:t=cresc.	!	!	!	!	!	!
.	.	2E 2A	.	2ee)	.	.	.	.
8C#L]	.	.	.	.	.	.	.	.
8CnJ)	.	.	.	.	.	.	.	.
=110	=110	=110	=110	=110	=110	=110	=110	=110
([2EE	.	4r	.	8r	.	4r	.	v(4)
.	.	.	.	(8a	.	.	.	.
.	.	2G 2B	.	2g)	.	(4ee	.	v
8EEL]	.	.	.	.	.	4gg)	.	.
8EJ)	.	.	.	.	.	.	.	.
=111	=111	=111	=111	=111	=111	=111	=111	=111
([2D#X	.	4r	.	8r	.	2.bb	.	#viio43
.	.	.	.	(8gg	.	.	.	.
.	.	([4B	.	[4ff#X)	.	.	.	.
8D#L]	.	8BL]	.	(8ff#L]	.	.	.	.
8DnJ)	.	8fnJ)	.	8gg#XJ)	.	.	.	.
=112	=112	=112	=112	=112	=112	=112	=112	=112
([2C	.	4e	.	8aaL	.	4r	.	i6
.	.	.	.	(8ffnJ	.	.	.	.
.	.	2E 2c	.	2ee)	.	4aa	.	.
8CL]	.	.	.	.	.	4ccc	.	.
8AAJ)	.	.	.	.	.	.	.	.
=113	=113	=113	=113	=113	=113	=113	=113	=113
([2GG#X	rfz	4r	.	8r	rfz	2eee	rfz	V65
.	.	.	.	(8ff	.	.	.	.
.	.	(4B 4d	rfz	2ee)	.	.	.	.
8GG#L]	.	4c)	.	.	.	4eee	.	i
8AAJ)	.	.	.	.	.	.	.	.
=114	=114	=114	=114	=114	=114	=114	=114	=114
([2EE	>	4r	>	8r	>	(4.eee	>	V
.	.	.	.	(8a	.	.	.	.
.	.	2E 2B	]]	2g#X)	]]	.	.	.
.	.	.	.	.	.	8bbL	.	.
8EEL]	.	.	.	.	.	8ddd	.	.
8EJ)	]]	.	.	.	.	8cccJ)	]]	.
=115	=115	=115	=115	=115	=115	=115	=115	=115
([2AA	p <	4r	.	(8aL	p <	4aa	p	i
.	.	.	.	8aaJ	.	.	.	.
.	.	(8cL	p <	4ee	.	4r	.	V7/iv
.	.	8c#X	.	.	.	.	.	.
8AAL]	[ >	8e	] > >	8ggnL	[ >	4r	.	iv
8DJ)	]]	8dJ)	]]	8ffJ)	]]	.	.	.
=116	=116	=116	=116	=116	=116	=116	=116	=116
([2DD	.	4r	]	8r	.	4r	.	.
.	.	.	.	(8b-X	.	.	.	.
.	.	(4d	.	2f) 2a	.	(4dd	.	.
8DDL]	.	4f)	.	.	.	4ff)	.	.
8DJ)	.	.	.	.	.	.	.	.
=117	=117	=117	=117	=117	=117	=117	=117	=117
!LO:TX:b:i:t=cresc.	!	!LO:TX:b:i:t=cresc.	!	!	!	!LO:TX:b:i:t=cresc.	!	!
[2C#X	.	2.a	.	8r	.	2.aa	.	V6/iv
!	!	!	!	!LO:TX:b:i:t=cresc.	!	!	!	!
.	.	.	.	(8ff	.	.	.	.
.	.	.	.	2ee)	.	.	.	.
8C#L]	.	.	.	.	.	.	.	.
8CnJ	.	.	.	.	.	.	.	.
=118	=118	=118	=118	=118	=118	=118	=118	=118
([2EE	.	4r	.	8r	.	4r	.	v
.	.	.	.	(8cc	.	.	.	.
.	.	(4e	.	2g) 2bn	.	(4ee	.	.
8EEL]	.	4g)	.	.	.	4gg)	.	.
8EJ)	.	.	.	.	.	.	.	.
=119	=119	=119	=119	=119	=119	=119	=119	=119
([2D#X	.	([2b	.	8r	.	2.bb	.	#viio43
.	.	.	.	(8gg	.	.	.	.
.	.	.	.	[4ff#X	.	.	.	.
8D#L]	.	8bL]	.	8ff#L]	.	.	.	.
8DnJ)	.	8g#XJ)	.	8ffnJ)	.	.	.	.
=120	=120	=120	=120	=120	=120	=120	=120	=120
([2C	.	4r	.	8r	.	4r	.	i6
.	.	.	.	(8ff	.	.	.	.
.	.	(4a	.	2ee)	.	(4aa	.	.
8CL]	.	4cc)	.	.	.	4ccc)	.	.
8AAJ)	.	.	.	.	.	.	.	.
=121	=121	=121	=121	=121	=121	=121	=121	=121
([2GG#X	rfz	2ee	rfz	8r	.	2eee	rfz	V6
.	.	.	.	(8f	rfz	.	.	.
*	*	*	*	*^	*	*	*	*
.	.	.	.	2e)	(4.B	.	.	.	.
8GG#L]	.	4ee	.	.	.	.	4eee	.	i
8AAJ)	.	.	.	.	8c)	.	.	.	.
*	*	*	*	*v	*v	*	*	*	*
=122	=122	=122	=122	=122	=122	=122	=122	=122
([2EE	.	(4.ee	.	8r	.	(4.eee	.	V
.	.	.	.	(8a	.	.	.	.
.	.	.	.	2B) 2g#X	f	.	.	.
.	.	8bL	.	.	.	8bbL	.	.
8EEL]	.	8dd	.	.	.	8ddd	.	.
8EJ)	.	8ccJ)	.	.	.	8cccJ)	.	.
=123	=123	=123	=123	=123	=123	=123	=123	=123
4AA'	f	4a'	f	4c'	.	4aa'	f	i
8FF	sf	8f	sf	8cc	sf	8aa	sf	VI
8r	.	8r	.	8r	.	8r	.	.
8FF	.	8c	.	8ff	.	8aa	.	.
8r	.	8r	.	8r	.	8r	.	.
=124	=124	=124	=124	=124	=124	=124	=124	=124
(8EEL	f	(8GnL	f	4cc	f	4.bb-X	f	V65/VI
8DD#XJ	.	8F#XJ	.	.	.	.	.	.
8EE)	.	8G)	.	8gn 8cc	.	.	.	.
8r	.	8r	.	8r	.	(8ff#XL	.	.
8EE	.	8G	.	8g 8cc	.	8aa	.	V65/VI
8r	.	8r	.	8r	.	8ggJ)	.	.
=125	=125	=125	=125	=125	=125	=125	=125	=125
4r	.	4r	.	8r	.	(8bL	.	III6
.	.	.	.	(8bbL	.	8dd	.	.
4EE 4C	sf	8r	.	8cccJ)	.	8ccJ)	sf	.
.	.	(8CL	.	8r	.	(8f#XL	.	.
4r	.	8cJ)	.	(8ff#XL	.	8a	.	.
.	.	8r	.	8ggnJ)	.	8gJ)	.	.
=126	=126	=126	=126	=126	=126	=126	=126	=126
4r	.	4r	.	8r	.	(8BL	.	.
.	.	.	.	(8bL	.	8d	.	.
4EE 4C	sf	8r	.	8ccJ)	.	8cJ)	sf	.
.	.	(8CL	.	8r	.	(8f#XL	.	.
4r	.	8cJ)	.	(8f#XL	.	8a	.	.
.	.	8r	.	8gJ)	.	8gJ)	.	.
=127	=127	=127	=127	=127	=127	=127	=127	=127
4r	.	4r	.	8r	.	(8bL	.	.
.	.	.	.	(8BL	.	8dd	.	.
4EE 4C	sf	8r	.	8cJ)	.	8ccJ)	sf	.
.	.	(8GL	.	8r	.	(8bbL	.	.
4r	.	8gJ)	.	(8bL	.	8ddd	.	.
.	.	8r	.	8ccJ)	.	8cccJ)	.	.
=128	=128	=128	=128	=128	=128	=128	=128	=128
(8DDL	f	(8FnL	f	(8ccL	f	4.fffn	f	V43/III
8CC#X	.	8G	.	8gn	.	.	.	.
8DDJ)	.	8FJ)	.	8bJ)	.	.	.	.
8r	.	8r	.	8r	.	(8eeL	.	.
8DD	sf	8F	sf	8fn 8b	sf	8gg	.	.
8r	.	8r	.	8r	.	8ffnJ)	.	.
=129	=129	=129	=129	=129	=129	=129	=129	=129
4r	.	4r	.	8r	.	(8a#XL	.	.
.	.	.	.	(8eeL	.	8cc	.	.
4DD 4GG	sf	8r	.	8ffnJ)	.	8bJ)	sf	.
.	.	(8GL	.	8r	.	(8eL	.	.
4r	.	8dJ)	.	(8a#XL	.	8g	.	.
.	.	8r	.	8bJ)	.	8fnJ)	.	.
=130	=130	=130	=130	=130	=130	=130	=130	=130
4r	.	4r	.	8r	.	(8eL	.	.
.	.	.	.	(8eL	.	8g	.	.
4DD 4GG	sf	8r	.	8fJ)	.	8fJ)	sf	.
.	.	(8GL	.	8r	.	(8a#XL	.	.
4r	.	8fJ)	.	(8eeL	.	8cc	.	.
.	.	8r	.	8ffJ)	.	8bJ)	.	.
=131	=131	=131	=131	=131	=131	=131	=131	=131
4r	.	4r	.	(8ccc#XL	.	(8eeL	.	III.V
.	.	.	.	8dddJ)	.	8gg	.	.
4GG 4G	sf	8r	.	8r	.	8ffJ)	sf	.
.	.	(8dL	.	(8cc#XL	.	(8eeL	.	.
4r	.	8bJ)	.	8ddJ)	.	8gg	.	.
.	.	8r	.	8r	.	8ffJ)	.	.
=132	=132	=132	=132	=132	=132	=132	=132	=132
!LO:TX:b:i:t=dim.	!	!LO:TX:b:i:t=dim.	!	!LO:TX:b:i:t=dim.	!	!	!	!
(8CCL 8C	.	(8GL	.	(8eL	.	4r	.	I[I64
8BBJ	.	8d	.	8f	.	.	.	.
8CC) 8C	.	8GJ)	.	8eJ)	.	8r	.	.
!	!	!	!	!	!	!LO:TX:b:i:t=dim.	!	!
8r	.	(8gL	.	(8eeL	.	(8eL	.	.
8CC 8C	.	8f	.	8b	.	8dd	.	viio64
8r	.	8eJ)	.	8ccnJ)	.	8ccJ)	.	I6
=133	=133	=133	=133	=133	=133	=133	=133	=133
(8CCL 8C	.	(8FL	.	(8dL	.	4r	.	ii6
8BBJ	.	8G	.	8e	.	.	.	.
8CC) 8C	.	8FJ)	.	8dJ)	.	8r	.	.
8r	.	(8dL	.	(8fL	.	(8bL	.	viio6
8CC 8C	.	8c	.	8a	.	8gg	.	vi65
8r	.	8dJ)	.	8bJ)	.	8ffJ)	.	viio6
=134	=134	=134	=134	=134	=134	=134	=134	=134
(8CCL 8C	p	(8EL	p	(8cL	p	4r	.	I6
8BBJ	.	8F	.	8d	.	.	.	.
8CC) 8C	.	8EJ)	.	8cJ)	.	8r	.	.
8r	.	(8gL	.	(8ggL	.	(8eeL	p	iii6
!LO:TX:b:i:t=piu p	!	!	!	!	!	!	!	!
8CC 8C	.	8b	.	8ff	.	8ddd	.	viio
!	!	!LO:TX:b:i:t=piu p	!	!LO:TX:b:i:t=piu p	!	!	!	!
8r	.	8ccJ)	.	8eeJ)	.	8cccJ)	.	I
=135	=135	=135	=135	=135	=135	=135	=135	=135
(8CCL 8C	p	(8DL	.	(8fL	.	4r	.	ii
8BBJ	.	8E	.	8g	.	.	.	.
8CC) 8C	.	8DJ)	.	8fJ)	.	8r	.	.
!	!	!	!	!	!	!LO:TX:b:i:t=piu p	!	!
8r	.	(8fL	.	(8ddL	.	(8bbL	.	viio64
8CC 8C	.	8c	.	8a	.	8ggg	.	vi6
8r	.	8dJ)	.	8bJ)	.	8fffJ)	.	viio6]
=136	=136	=136	=136	=136	=136	=136	=136	=136
2.r	.	(8GL	pp	(8gL	pp	(8ddd#XL	pp	V
.	.	8g	.	8gg	.	8eee	.	I64
.	.	8f#X	.	8ff#X	.	8aa	.	V6/V
.	.	8fn	.	8ffn	.	8dddn	.	viio64
.	.	8g	.	8gg	.	8bb	.	V
.	.	[8eJ	.	[8eeJ	.	8cccJ	.	I6
=137	=137	=137	=137	=137	=137	=137	=137	=137
2.r	.	8eL]	.	8eeL]	.	8ffL	.	@none
.	.	8d	.	8dd	.	8bb	.	viio6
.	.	8c#X	.	8cc#X	.	8ee	.	@none
.	.	8cn	.	8ccn	.	8aa	.	vi6
.	.	8d	.	8dd	.	8ff#X	.	V/V
.	.	8BJ	.	8bJ	.	8ggJ	.	V6
=138	=138	=138	=138	=138	=138	=138	=138	=138
2.r	.	8B-XL	.	8b-XL	.	8ccL	.	V2/IV
.	.	8A	.	8a	.	8ffn	.	IV6
.	.	8G#X	.	8g#X	.	8b	.	#viio/vi
.	.	8Gn	.	8gn	.	8ee	.	iii6
.	.	8A	.	8a	.	8cc#X	.	V/ii
.	.	8FJ	.	8fJ	.	8ddJ	.	ii6
=139	=139	=139	=139	=139	=139	=139	=139	=139
4r	.	8EL	.	8eL	.	8gL	.	I6
.	.	8E-X	.	8e-X	.	8ccn	.	i6
2g	pp	8En	.	8en	.	8gg	.	I6
.	.	8A	.	8a	.	8cc	.	.
.	.	8D	.	8d	.	8ff	.	V43
.	.	8GJ)	.	8gJ)	.	8bJ)	.	.
=140	=140	=140	=140	=140	=140	=140	=140	=140
!LO:TX:b:i:t=cresc.	!	!LO:TX:b:i:t=cresc.	!	!LO:TX:b:i:t=cresc.	!	!LO:TX:b:i:t=cresc.	!	!
(8GL	.	(8d#XL	.	(8dd#XL	.	(8ggL	.	V
8g	.	8e	.	8ee	.	8cc	.	V(64)
8F	.	8A	.	8a	.	8gg	.	V2
8f	.	8dn	.	8ddn	.	8gJ	.	.
8E	.	8Bn	.	8bn	.	8aaL	.	I6
8eJ	.	8cJ	.	8ccJ	.	8ggJ	.	.
=141	=141	=141	=141	=141	=141	=141	=141	=141
8DL	.	8FL	.	8fL	.	8bbL	.	V43
8d	.	8B	.	8b	.	8gg	.	.
8C	.	8E	.	8e	.	8ccc	.	I
8c	.	8A	.	8a	.	8gg	.	.
8BB	.	8F#X	.	8f#X	.	8ddd	.	V6
8BJ	.	8GJ	.	8gJ	.	8ggJ	.	.
=142	=142	=142	=142	=142	=142	=142	=142	=142
8AAL	.	8CL)	.	8cL)	.	8eeeL	.	vi
8A	.	(8fn	.	(8ffn	.	8gg	.	IV6(+2)
8GG	.	8B	.	8b	.	8fff	.	V7
8G	.	8e	.	8ee	.	8gg	.	iii6
8FF	.	8c#X	.	8cc#X	.	8ggg	.	V2(#4)
8FJ	.	8dJ	.	8ddJ	.	8ggJ)	.	V2
=143	=143	=143	=143	=143	=143	=143	=143	=143
8EEL	.	8BL	.	8bL	.	(8gggL	.	I6
8E	.	8cn	.	8ccn	.	8gg	.	.
8EE-X	.	8g	.	8gg	.	8ggg	.	i6
8E-X	.	8c	.	8cc	.	8gg	.	.
8DD	.	8f	.	8ff	.	8ggg	.	V43
8DJ)	.	8BJ)	.	8bJ)	.	8ggJ)	.	.
=144	=144	=144	=144	=144	=144	=144	=144	=144
4.DD	f	4F 4G	f	4b 4ff	f	(8gggL	f	.
.	.	.	.	.	.	8fff#XJ)	.	.
.	.	8F 8G	.	8d 8b	.	8gg 8ggg	.	.
(8EEnL	.	8r	.	8r	.	8r	.	.
8GG	.	8F 8G	.	8d 8b	.	8gg 8ggg	.	.
8FFJ)	.	8r	.	8r	.	8r	.	.
=145	=145	=145	=145	=145	=145	=145	=145	=145
(8AA#XL	.	8r	.	4r	.	4r	.	.
8C	.	(8eL	.	.	.	.	.	.
8BBJ)	sf	8fJ)	.	8r	.	4dd 4gg	sf	V65
(8C#XL	.	8r	.	(8gL	.	.	.	.
8E	.	(8A#XL	.	8GJ)	.	4r	.	.
8DJ)	.	8BJ)	.	8r	.	.	.	.
=146	=146	=146	=146	=146	=146	=146	=146	=146
(8EL	.	8r	.	4r	.	4r	.	.
8G	.	(8c#XL	.	.	.	.	.	.
8FJ)	sf	8dJ)	.	8r	.	4b 4gg	sf	.
(8A#XL	.	8r	.	(8gL	.	.	.	.
8cn	.	(8eL	.	8GJ)	.	4r	.	.
8BJ)	.	8fJ)	.	8r	.	.	.	.
=147	=147	=147	=147	=147	=147	=147	=147	=147
(8c#XL	.	8r	.	8r	.	4r	.	.
8e	.	(8cc#XL	.	(8gL	.	.	.	.
8dJ)	sf	8ddJ)	.	8fJ)	.	4b 4gg	sf	V43
(8eL	.	(8cc#L	.	(8gL	.	.	.	.
8g	.	8ee	.	8GJ)	.	4r	.	.
8fJ)	.	8ddJ)	.	8r	.	.	.	.
=148	=148	=148	=148	=148	=148	=148	=148	=148
4.CC	f	4c 4d	f	4f#X 4a	f	(8dddL	f	V2/V
.	.	.	.	.	.	8ccc#XJ	.	.
.	.	8c 8d	.	8f# 8a	.	8dd) 8ddd	.	.
(8EE	.	8r	.	8r	.	8r	.	.
8GGL	.	8c 8d	.	8f# 8a	.	8dd 8ddd	.	.
8FF#XJ)	.	8r	.	8r	.	8r	.	.
=149	=149	=149	=149	=149	=149	=149	=149	=149
(8GG#XL	.	8r	.	8r	.	4r	.	i.#viio
8BBJ	.	(8d	.	(8g#X	.	.	.	.
8AAL)	sf	8cL)	.	8a)	.	4dd 4ddd	sf	i(+4)
(8BBJ	.	(8dJ	.	8r	.	.	.	.
8DL	.	8D)	.	(8BL	.	4r	.	.
8CJ)	.	8r	.	8cJ)	.	.	.	.
=150	=150	=150	=150	=150	=150	=150	=150	=150
(8EL	.	8r	.	8r	.	4r	.	#viio6/iv
8GJ	.	(8e	.	(8cc#X	.	.	.	.
8F#XL)	sf	8dL)	.	8dd)	.	4dd 4ddd	sf	#viio
(8G#XJ	.	(8dJ	.	8r	.	.	.	.
8BL	.	8DL	.	(8gg#XL	.	8r	.	#viio64
8AJ)	.	8cJ)	.	8aaJ)	.	8r	.	i
=151	=151	=151	=151	=151	=151	=151	=151	=151
(8BL	.	8r	.	8r	.	4r	.	#viio6
8dJ	.	(8b	.	(8gg#X	.	.	.	.
8cL)	sf	8aL)	.	8aa)	.	4dd 4ddd	sf	i6(+4)
(8BJ	.	(8ddJ	.	8r	.	.	.	.
8dL	.	8bL	.	(8gg#L	.	8r	.	#viio65
8cJ)	.	8aJ)	.	8aaJ)	.	8r	.	i6
=152	=152	=152	=152	=152	=152	=152	=152	=152
4.BB	f	4G#X 4g#X	f	4dd 4ff	f	(8fffL	f	#viio65
.	.	.	.	.	.	8eeeJ	.	.
.	.	8G# 8g#	.	8dd 8ff	.	8ff) 8fff	.	.
(8C#X	.	8r	.	8r	.	8r	.	.
8EL	.	8G# 8g#	.	8b 8ff	.	8ff 8fff	.	#viio43
8DJ)	.	8r	.	8r	.	8r	.	.
=153	=153	=153	=153	=153	=153	=153	=153	=153
(8EL	.	8r	.	8r	.	4r	.	.
8GJ	.	(8c	.	(8cc#X	.	.	.	.
8FL)	sf sf	8BL)	.	8dd)	.	4ff 4fff	sf	.
(8A#XJ	.	(8dJ	.	8r	.	.	.	.
8cL	.	8cL	.	(8eeL	.	4r	.	.
8BJ)	.	8BJ)	.	8ffJ)	.	.	.	.
*clefC4	*	*	*	*	*	*	*	*
=154	=154	=154	=154	=154	=154	=154	=154	=154
(8c#XL	.	8r	.	8r	.	4r	.	iv.#viio
8e	.	(8cc#X	.	(8gg	.	.	.	.
8dJ)	sf	8dd)	.	8ff)	.	4ff 4fff	sf	i
(8eL	.	8r	.	8r	.	.	.	.
8g	.	(8GL	.	(8eeL	.	4r	.	.
8fJ)	.	8G#XJ)	.	8ddJ)	.	.	.	.
=155	=155	=155	=155	=155	=155	=155	=155	=155
(8c#XL	.	8r	.	(8eeL	.	4r	.	.
8e	.	(8A#X	.	8ggJ	.	.	.	.
8dJ)	sf	8BL)	.	8ffL)	.	4ff 4fff	sf	.
(8c#L	.	(8eJ	.	(8aa#XJ	.	.	.	.
8e	.	8gL	.	8cccL	.	4r	.	.
8dJ)	.	8fJ)	.	8bbJ)	.	.	.	.
*clefF4	*	*	*	*	*	*	*	*
=156	=156	=156	=156	=156	=156	=156	=156	=156
4.CC#X	f	4E 4G	f	4b-X 4bb-X	f	(8eeeL	f	#viio7
.	.	.	.	.	.	8ddd#XJ	.	.
.	.	8E 8G	.	8b- 8bb-	.	8ee) 8eee	.	.
(8BBB#X	.	8r	.	8r	.	8r	.	.
8DDL	.	8E 8G	.	8b- 8bb-	.	8ee 8eee	.	.
8CC#J)	.	8r	.	8r	.	8r	.	.
=157	=157	=157	=157	=157	=157	=157	=157	=157
(8FF#XL	.	8r	.	8r	.	4r	.	I6
8AAJ	.	((8f#X	.	(8ff#X	.	.	.	.
8GGL)	sf	8gL))	.	8ggL)	.	4ee 4eee	sf	ii%65
(8BB#XJ	.	(8B-XJ	.	(8ggJ	.	.	.	.
8DL	.	8G#XL	.	8ffnL	.	8r	.	#viio43/V
8C#XJ)	.	8AJ)	.	8eeJ)	.	8r	.	V6
=158	=158	=158	=158	=158	=158	=158	=158	=158
(8F#XL	.	8r	.	8r	.	4r	.	I6
8AJ	.	(8f#X	.	(8aa	.	.	.	.
8GL)	sf	8gL)	.	8bb-XL)	.	4ee 4eee	sf	ii%65
*clefC4	*	*	*	*	*	*	*	*
(8B#XJ	.	(8b-XJ	.	(8ggJ	.	.	.	.
8dL	.	8g#XL	.	8ffL	.	8r	.	#viio43/V
8c#XJ)	.	8aJ)	.	8eeJ)	.	8r	.	V6
=159	=159	=159	=159	=159	=159	=159	=159	=159
(8f#XL	.	8r	.	8r	.	4r	.	I6
8aJ	.	(8cc	.	(8ff#X	.	.	.	.
8gL)	sf	8b-XL)	.	8ggL)	.	4ee 4eee	sf	ii%65
(8f#J	.	(8aJ	.	(8aaJ	.	.	.	.
8aL	.	8ccL	.	8ff#L	.	4r	.	.
8gJ)	.	8b-J)	.	8ggJ)	.	.	.	.
=160	=160	=160	=160	=160	=160	=160	=160	=160
!LO:TX:b:i:t=dim.	!	!LO:TX:b:i:t=dim.	!	!LO:TX:b:i:t=dim.	!	!	!	!
(8dL	.	(8fnL	.	(8b-XL 8gg	.	4r	.	VI6(+6)
8fJ	.	8aJ	.	8ddJ	.	.	.	.
8e)	.	8g)	.	8cc#X)	.	8r	.	#viio65
!	!	!	!	!	!	!LO:TX:b:i:t=dim.	!	!
8r	.	8r	.	8r	.	(8bb	.	.
4r	.	4r	.	4r	.	8dddL	.	.
.	.	.	.	.	.	8ccc#XJ)	.	.
=161	=161	=161	=161	=161	=161	=161	=161	=161
(8eL	.	(8gL	.	(8cc#XL	.	4r	.	.
8gJ	.	8b-XJ	.	8eeJ	.	.	.	.
8f)	.	8a)	.	8dd)	.	8r	.	i6
8r	.	8r	.	8r	.	(8ccc#X	.	.
4r	.	4r	.	4r	.	8eeeL	.	.
.	.	.	.	.	.	8dddJ)	.	.
*clefF4	*	*	*	*	*	*	*	*
=162	=162	=162	=162	=162	=162	=162	=162	=162
(8BB-XL	p	(8fL	p	(8ddL	p	4r	.	iv7
8GGJ	.	8ddJ	.	8ffJ	.	.	.	.
8AA)	.	8cc#X)	.	8ee)	.	8r	.	V
8r	.	8r	.	8r	.	(8ddd	p	.
4r	.	4r	.	4r	.	8fffL	.	.
.	.	.	.	.	.	8eeeJ)	.	.
=163	=163	=163	=163	=163	=163	=163	=163	=163
(8BB-XL	???	(8cc#XL	???	(8eeL	???	4r	.	#viio2
8GGJ	.	8eeJ	.	8ggJ	.	.	.	.
8AA)	.	8dd)	.	8ff)	.	8r	.	i64
8r	.	8r	.	8r	.	(8eee	???	.
4r	.	4r	.	4r	.	8gggL	.	.
.	.	.	.	.	.	8fffJ)	.	.
*clefG2	*	*	*	*	*	*	*	*
=164	=164	=164	=164	=164	=164	=164	=164	=164
[2.bb-X	pp	8r	.	4r	.	4r	.	#viio7
.	.	(8d	pp	.	.	.	.	.
.	.	[2c#X)	.	8r	.	4r	.	.
.	.	.	.	(8f	pp	.	.	.
.	.	.	.	[4e)	.	8r	.	.
.	.	.	.	.	.	(8a	pp	.
=165	=165	=165	=165	=165	=165	=165	=165	=165
8bb-L]	.	2c#_	.	2.e]	.	2.g)	.	V65
!LO:TX:b:t=espress.	!	!	!	!	!	!	!	!
(8bb-XJ	.	.	.	.	.	.	.	.
[2aa)	>]	.	.	.	.	.	.	.
.	.	(8c#L]	.	.	.	.	.	.
.	.	8C#XJ)	.	.	.	.	.	.
=166	=166	=166	=166	=166	=166	=166	=166	=166
*	*	*	*	*	*	*^	*	*
!	!	!	!LO:DY:a	!	!	!	!	!	!
8aaL]	.	([2D	>	4d	.	(4.f	2.A	.	i
(8bb-XJ	.	.	.	.	.	.	.	.	.
2aa)	>]	.	.	4r	.	.	.	.	.
.	.	.	.	.	.	8g	.	<	.
.	.	8DL]	.	4r	.	4f	.	.	.
.	.	8AJ)	]]	.	.	.	.	.	.
=167	=167	=167	=167	=167	=167	=167	=167	=167	=167
!	!	!	!LO:DY:a	!	!	!	!	!	!
8r	.	([2E	> >	2.r	.	4.g	2.A	[	V43
(8bb-X	.	.	.	.	.	.	.	.	.
2aa)	>]	.	.	.	.	.	.	.	.
.	.	.	.	.	.	8a	.	<	.
.	.	8EL]	.	.	.	4g)	.	.	.
.	.	8AJ)	]]	.	.	.	.	.	.
=168	=168	=168	=168	=168	=168	=168	=168	=168	=168
!	!	!	!LO:DY:a	!LO:TX:b:t=espress.	!	!	!	!	!
8r	>	([2D	] >	(4.dd	.	(4.f	2.A	[	i
(8bb-X	.	.	.	.	.	.	.	.	.
2aa)	]]	.	.	.	.	.	.	.	.
.	.	.	.	8a	.	8g	.	.	.
.	.	8DL]	.	8ffL)	.	4f)	.	.	.
.	.	8AJ)	]]	8dd'J	.	.	.	.	.
*	*	*	*	*	*	*v	*v	*	*
=169	=169	=169	=169	=169	=169	=169	=169	=169
8r	.	([2E	.	(2dd	< >	4.A 4.g	.	V43
(8bb-X	.	.	.	.	.	.	.	.
2aa)	.	.	.	.	.	.	.	.
.	.	.	.	.	.	(8bb-X	.	.
.	.	8EL]	.	4cc#X)	]]	8aaL	.	.
.	.	8AJ)	.	.	.	8ccc#XJ)	.	.
=170	=170	=170	=170	=170	=170	=170	=170	=170
!	!	!	!	!	!	!LO:TX:b:t=espress.	!	!
8r	.	([2D	.	2A 2f	]	(4.ddd	.	i
(8bb-X	.	.	.	.	.	.	.	.
4aa	.	.	.	.	.	.	.	.
.	.	.	.	.	.	8aa	.	.
4gg)	.	8DL]	.	4G 4f	.	8fffL)	.	iv43
.	.	8BJ)	.	.	.	8ddd'J	.	.
=171	=171	=171	=171	=171	=171	=171	=171	=171
8r	.	([2E	.	(4.G	.	(2ddd	<	V6(2)/III
(8aa	.	.	.	.	.	.	.	.
2gg)	.	.	.	.	.	.	.	.
.	.	.	.	8f	.	.	.	.
.	.	8EL]	.	4e)	.	4ccc)	>]	V6/III
.	.	8GJ)	.	.	.	.	.	.
=172	=172	=172	=172	=172	=172	=172	=172	=172
!	!	!	!	!LO:TX:b:t=espress.	!	!	!	!
(8ffL	.	([2D	.	(4.dd	.	4r	]	i
8bb-XJ	.	.	.	.	.	.	.	.
2aa)	.	.	.	.	.	8r	.	.
.	.	.	.	8a	.	8g	.	.
.	.	8DL]	.	8ffL)	.	4A 4f	.	.
.	.	8AJ)	.	8dd'J	.	.	.	.
=173	=173	=173	=173	=173	=173	=173	=173	=173
8r	.	([2E	.	(2dd	< >	4A 4g	.	V43(4)
(8bb-X	.	.	.	.	.	.	.	.
!	!	!	!	!	!	!LO:TX:b:t=espress.	!	!
2aa)	.	.	.	.	.	(8ggL	.	.
.	.	.	.	.	.	8ee	.	.
.	.	8EL]	.	4cc#X)	]]	8bb-X)	.	V43(+b2)
.	.	8AJ)	.	.	.	8gg'J	.	.
=174	=174	=174	=174	=174	=174	=174	=174	=174
!	!	!LO:TX:b:i:t=cresc.	!	!LO:TX:b:i:t=cresc.	!	!LO:TX:b:i:t=cresc.	!	!
8r	.	([2D	.	(4.dd	]	(2gg	.	i(4)
!LO:TX:b:i:t=cresc.	!	!	!	!	!	!	!	!
(8bb-X	.	.	.	.	.	.	.	.
2aa)	.	.	.	.	.	.	.	.
.	.	.	.	8ee	.	.	.	.
.	.	8DL]	.	8ffL	.	4ff)	.	i
.	.	8AJ)	.	8ggJ	.	.	.	.
=175	=175	=175	=175	=175	=175	=175	=175	=175
8r	.	([2C#X	.	4aa')	.	4r	.	V6
(8bb-X	.	.	.	.	.	.	.	.
2aa)	.	.	.	(4aa'	.	8r	.	.
.	.	.	.	.	.	(8ff	.	.
.	.	8C#L]	.	4aa')	.	4ee)	.	.
.	.	8CnJ)	.	.	.	.	.	.
*clefC4	*	*	*	*	*	*	*	*
=176	=176	=176	=176	=176	=176	=176	=176	=176
!	!	!	!	!	!	!LO:TX:b:t=espress.	!	!
8r	.	([2A	p	(4.cc	p	(4.aa	p	i.i
(8f	p	.	.	.	.	.	.	.
2e)	.	.	.	.	.	.	.	.
.	.	.	.	8dd	.	8ee	.	.
.	.	8AL]	.	4cc)	.	8cccL)	.	.
.	.	8eJ)	.	.	.	8aa'J	.	.
=177	=177	=177	=177	=177	=177	=177	=177	=177
8r	.	([2B	.	4r	.	(2aa	.	V64(4)
(8f	.	.	.	.	.	.	.	.
2e)	.	.	.	8r	.	.	.	.
.	.	.	.	(8ee	.	.	.	.
.	.	8BL]	.	4dd)	.	4gg#X)	.	V43
.	.	8eJ)	.	.	.	.	.	.
=178	=178	=178	=178	=178	=178	=178	=178	=178
!	!	!LO:TX:b:i:t=cresc.	!	!	!	!LO:TX:b:i:t=cresc.	!	!
8r	.	([2A	.	4r	.	(4.aa	.	i
(8f	.	.	.	.	.	.	.	.
2e)	.	.	.	8r	.	.	.	.
!	!	!	!	!LO:TX:b:i:t=cresc.	!	!	!	!
.	.	.	.	(8dd	.	8bb	.	.
.	.	8AL]	.	4cc)	.	8cccL	.	.
.	.	8eJ)	.	.	.	8dddJ	.	.
=179	=179	=179	=179	=179	=179	=179	=179	=179
8r	.	([2G#X	.	4r	.	4eee')	.	V6
(8f	.	.	.	.	.	.	.	.
2e)	.	.	.	8r	.	4eee'	.	.
.	.	.	.	(8cc	.	.	.	.
.	.	8G#L]	.	4b)	.	4eee'	.	.
.	.	8eJ)	.	.	.	.	.	.
=180	=180	=180	=180	=180	=180	=180	=180	=180
8r	.	([2Gn	.	4r	.	2eee	.	VI.viio6
(8c	.	.	.	.	.	.	.	.
2B-X)	.	.	.	8r	.	.	.	.
.	.	.	.	(8dd	.	.	.	.
.	.	8GL]	.	4cc)	.	(4eee	.	V43
.	.	8cJ)	.	.	.	.	.	.
=181	=181	=181	=181	=181	=181	=181	=181	=181
8r	.	([2F	>	4r	.	4.ggg	>	I(9)
(8B-X	>	.	.	.	.	.	.	.
2A)	]]	.	.	8r	.	.	.	.
.	.	.	.	(8dd	>	8fff)	.	I
.	.	8FL]	.	4cc)	]]	8eee'L	.	.
.	.	8cJ)	]]	.	.	8ddd'J	]]	.
=182	=182	=182	=182	=182	=182	=182	=182	=182
8r	.	([2G	p	4r	.	(2ccc	p	V(64)/V
(8A	p	.	.	.	.	.	.	.
2G)	.	.	.	8r	.	.	.	.
.	.	.	.	(8dd	p	.	.	.
.	.	.	.	.	.	16qqddd/LL	.	.
.	.	.	.	.	.	16qqccc/	.	.
.	.	.	.	.	.	16qqbb/	.	.
.	.	.	.	.	.	16qqccc/JJ	.	.
.	.	8GL]	.	8ccL	.	8eeeL	.	.
.	.	8gJ)	.	8bJ)	.	8dddJ)	.	V/V
=183	=183	=183	=183	=183	=183	=183	=183	=183
8r	.	([2G	<	(8bL	<	4ddd	.	.
(8a	<	.	.	8ccJ	.	.	.	.
4.g	>	.	.	8bL	.	4r	.	.
.	.	.	.	8eeJ	.	.	.	.
.	.	8GL]	.	4dd)	>]	8r	.	.
8f)	]]	8dJ)	>]	.	.	8r	.	vi6
=184	=184	=184	=184	=184	=184	=184	=184	=184
8r	]	([2D	]	4r	]	4r	.	vi
(8g	.	.	.	.	.	.	.	.
2f)	.	.	.	8r	.	(4ddd	.	.
.	.	.	.	(8ee	.	.	.	.
.	.	8DL]	.	4dd)	.	4fff)	.	.
.	.	8dJ)	.	.	.	.	.	.
*clefF4	*	*	*	*	*	*	*	*
=185	=185	=185	=185	=185	=185	=185	=185	=185
!	!	!LO:TX:b:i:t=cresc.	!	!	!	!LO:TX:b:i:t=cresc.	!	!
4r	.	((2c#X	.	8r	.	2.aaa	.	i.i6
!	!	!	!	!LO:TX:b:i:t=cresc.	!	!	!	!
.	.	.	.	(8f	.	.	.	.
!LO:TX:b:i:t=cresc.	!	!	!	!	!	!	!	!
!LO:TX:a:t=pizz.	!	!	!	!	!	!	!	!
4AA	.	.	.	8eL	.	.	.	.
.	.	.	.	8bJ	.	.	.	.
4C	.	8cnL)	.	4a)	.	.	.	.
.	.	8AJ)	.	.	.	.	.	.
*clefC4	*	*	*	*	*	*	*	*
=186	=186	=186	=186	=186	=186	=186	=186	=186
8r	.	([2E	.	4r	.	4r	.	v
!LO:TX:a:t=arco	!	!	!	!	!	!	!	!
(8a	.	.	.	.	.	.	.	.
2g)	.	.	.	8r	.	(4ee	.	.
.	.	.	.	(8cc	.	.	.	.
.	.	8EL]	.	4b)	.	4gg)	.	.
.	.	8eJ)	.	.	.	.	.	.
*clefF4	*	*	*	*	*	*	*	*
=187	=187	=187	=187	=187	=187	=187	=187	=187
4r	.	((2d#X	.	8r	.	2.bb	.	#viio43
.	.	.	.	(8b	.	.	.	.
!LO:TX:a:t=pizz.	!	!	!	!	!	!	!	!
4BB	.	.	.	8f#XL	.	.	.	.
.	.	.	.	8ccJ	.	.	.	.
4D	.	8dnL)	.	8fnL 8b	.	.	.	.
.	.	8G#XJ)	.	8ffJ)	.	.	.	.
=188	=188	=188	=188	=188	=188	=188	=188	=188
4C#X	.	([2E	.	8r	.	4r	.	V6/iv
.	.	.	.	(8ff	.	.	.	.
4Cn	.	.	.	8eeL	.	(4aa	.	i6
.	.	.	.	8fJ	.	.	.	.
4AA	.	8EL]	.	8eL	.	4ccc)	.	i
.	.	8cJ)	.	8aJ)	.	.	.	.
=189	=189	=189	=189	=189	=189	=189	=189	=189
4GG#X	rfz	([2E	rfz	8r	.	2eee	rfz	V43
.	.	.	.	(8f	rfz	.	.	.
4BB	.	.	.	8eL	.	.	.	.
.	.	.	.	8ddJ	.	.	.	.
4AA	.	8EL]	.	8ccL	.	4eee	.	i
.	.	8cJ)	.	8aaJ)	.	.	.	.
=190	=190	=190	=190	=190	=190	=190	=190	=190
4GG#X	>	([2E	>	8r	.	(4.eee	>	V
.	.	.	.	(8cc	>	.	.	.
4EE	.	.	.	8bL	.	.	.	.
.	.	.	.	8g#XJ	.	8bb	.	.
4EE	]]	8EL]	.	8bL	.	8dddL	.	V7
.	.	8AJ)	]]	8aJ)	]]	8cccJ)	]]	.
=191	=191	=191	=191	=191	=191	=191	=191	=191
4AA	p	8A	p	8c 8a	p	4aa	p	i
.	.	(8D#X	f	(8d#X	f	.	.	.
4r	.	8EL)	.	8eL)	.	4r	.	.
.	.	(8D#J	.	(8d#J	.	.	.	.
4r	.	8E)	.	8e)	.	4r	.	.
.	.	8E	.	8e	.	.	.	.
=192	=192	=192	=192	=192	=192	=192	=192	=192
!LO:TX:a:t=arco	!	!	!	!	!	!	!	!
([2AA	>	[2.E	>]	[2.e	>]	(4.fff	>	i(6)
.	.	.	.	.	.	8ccc	.	.
8AAL]	.	.	.	.	.	8eeeL	.	i
8EJ)	]]	.	.	.	.	8dddJ)	]]	.
=193	=193	=193	=193	=193	=193	=193	=193	=193
4GG#X	p	8E]	p	8e]	p	4bb	p	V6
.	.	(8D#X	f	(8d#X	f	.	.	.
4r	.	8EL)	.	8eL)	.	4r	.	.
.	.	(8D#J	.	(8d#J	.	.	.	.
4r	.	8E)	.	8e)	.	4r	.	.
.	.	8E	.	8e	.	.	.	.
=194	=194	=194	=194	=194	=194	=194	=194	=194
([2GG#X	>	[2.E	>]	[2.e	>]	(4.ggg	>	V6
.	.	.	.	.	.	8bb	.	.
8GG#L]	.	.	.	.	.	8dddL	.	.
8EJ)	]]	.	.	.	.	8cccJ)	]]	.
=195	=195	=195	=195	=195	=195	=195	=195	=195
8AA	p	8E]	p	8e]	p	4aa	p	i
(8f	f	(8d#X	f	(8dd#X	f	.	.	.
8eL)	.	8eL)	.	8eeL)	.	4r	.	.
(8fJ	.	(8d#J	.	(8dd#J	.	.	.	.
8eL)	.	8eL)	.	8eeL)	.	4r	.	.
8eJ	.	8eJ	.	8eeJ	.	.	.	.
=196	=196	=196	=196	=196	=196	=196	=196	=196
([2AA	sf	2.E	sf	2.e 2.ee	sf	(4.fff	f	i(6)
.	.	.	.	.	.	8cccL	.	i
8AAL]	.	.	.	.	.	8eee	.	.
8EJ)	.	.	.	.	.	8dddJ)	.	.
=197	=197	=197	=197	=197	=197	=197	=197	=197
8GG#X	.	8E	.	8e 8ee	.	8bb	.	V6
8r	.	8r	.	8r	.	8r	.	.
8G#X	.	8d	.	8ee	.	8bb	.	V65
8r	.	8r	.	8r	.	8r	.	.
8A	.	8c	.	8ee	.	8ccc	.	i
8r	.	8r	.	8r	.	8r	.	.
=198	=198	=198	=198	=198	=198	=198	=198	=198
8d	.	8a	.	8ff	.	8ddd	.	iv
8r	.	8r	.	8r	.	8r	.	.
8e	.	8a	.	8ee	.	8ccc	.	V(64)
8r	.	8r	.	8r	.	8r	.	.
8E	.	8g#X	.	8ee	.	8bb	.	V
8r	.	8r	.	8r	.	8r	.	.
=199	=199	=199	=199	=199	=199	=199	=199	=199
8A	.	8a	.	8cc 8ee	.	8aa	.	i\\
8r	.	(8AL	.	(8ccL	.	(8ddd#XL	.	#viio6/V
4r	.	8G#XJ)	.	8bJ)	.	8eeeJ)	.	V6
.	.	(8AL	.	(8ccL	.	(8ddd#L	.	#viio6/V
4r	.	8G#J)	.	8bJ)	.	8eeeJ)	.	V6
.	.	8A	.	8cc	.	8eee	.	.
=200	=200	=200	=200	=200	=200	=200	=200	=200
(4.f	>	2.A	>]	(4.ff	>	[2.eee	>]	VI(7)
8cL	.	.	.	8ccL	.	.	.	.
8e	.	.	.	8ee	.	.	.	.
8dJ)	]]	.	.	8ddJ)	]]	.	.	.
=201	=201	=201	=201	=201	=201	=201	=201	=201
8B	p	8G#X	p	8b	p	8eee]	p	V6
!	!LO:DY:a	!	!	!	!	!	!	!
(8AAL	f f	(4E	.	(8cL	f	(8ddd#XL	f	#viio6/V
8GG#XJ)	.	.	.	8BJ)	.	8eeeJ)	.	V6
(8AAL	.	(4E)	.	(8cL	.	(8ddd#L	.	#vio6
8GG#J)	.	.	.	8BJ)	.	8eeeJ)	.	V6
8GG#	.	8E)	.	8B	.	8eee	.	.
=202	=202	=202	=202	=202	=202	=202	=202	=202
(4.e	>	[2G#X [2B	>	(4.ee	>	[2.eee	>]	V6
8BL	.	.	.	8bL	.	.	.	.
8d	.	8G#L] 8B]	.	8dd	.	.	.	.
8cJ)	]]	8AJ	]]	8ccJ)	]]	.	.	.
=203	=203	=203	=203	=203	=203	=203	=203	=203
8c	p	8A	p	8cc	p	8eee]	p	i6
8r	.	(8AL	f	(8cL	f	(8ddd#XL	f	#vio6
4r	.	8G#XJ)	.	8BJ)	.	8eeeJ)	.	V6
8ryy	.	8CJ)	.	.	.	8eeeJ)	.	.
8AA-X	f	(8C	.	8c	.	8fff#X	.	.bi7
=204	=204	=204	=204	=204	=204	=204	=204	=204
8GGn	.	8D)	.	8B	.	(4.ggg	f	VII7(4b2)
(8AA-XL	.	(8CL	.	(8cL	.	.	.	.
8GGJ)	.	8DJ)	.	8BJ)	.	.	.	.
(8AA-L	.	(8CL	.	(8cL	.	8dddnL	.	.
8GGJ)	.	8DJ)	.	8BJ)	.	8fffn	.	.
8GG	.	8C	.	8c	.	8eeeJ)	.	III64
=205	=205	=205	=205	=205	=205	=205	=205	=205
8C	.	8G	.	8e	.	8ccc	.	III
8r	.	8r	.	8r	.	8r	.	.
8BB	.	8G	.	8gg	.	8ddd	.	VII6
8r	.	8r	.	8r	.	8r	.	.
8C	.	8G	.	8ee	.	8eee	.	III
8r	.	8r	.	8r	.	8r	.	.
=206	=206	=206	=206	=206	=206	=206	=206	=206
8FF	.	8cc	.	8a	.	8fff	.	VI
8r	.	8r	.	8r	.	8r	.	.
8GG	.	8cc	.	8g	.	8eee	.	V(64)
8r	.	8r	.	8r	.	8r	.	.
8GG	.	8b	.	8ff	.	8ddd	.	VII7
8r	.	8r	.	8r	.	8r	.	.
=207	=207	=207	=207	=207	=207	=207	=207	=207
8C	.	8g	.	8ee	.	8ccc	.	III
8r	.	8r	.	8r	.	8r	.	.
4r	.	8cc	p	8ee	p	4r	.	.
.	.	8r	.	8r	.	.	.	.
4r	.	8dd	.	8ff	.	4r	.	iv
.	.	8r	.	8r	.	.	.	.
=208	=208	=208	=208	=208	=208	=208	=208	=208
4r	.	8ee	.	8gg	.	4r	.	v
.	.	8r	.	8r	.	.	.	.
8ccc	p	8dd	.	8ff	.	8eee	p	@none
8r	.	8r	.	8r	.	8r	.	.
8ccc	.	8cc	.	8ee	.	8fff	.	III(4)
8r	.	8r	.	8r	.	8r	.	.
=209	=209	=209	=209	=209	=209	=209	=209	=209
8ccc	.	4e	.	8gL	.	(2ggg	.	#ivo2(3)
8r	.	.	.	(8gg	.	.	.	.
8ee	.	4r	.	8aa	.	.	.	.
8r	.	.	.	8ff#XJ	.	.	.	.
8eee	.	(8eL	.	8gg)	.	4cccT)	.	III64
8r	.	8eeJ)	.	8r	.	.	.	.
=210	=210	=210	=210	=210	=210	=210	=210	=210
4r	.	(8eeL	.	8r	.	4bb	.	VII43
.	.	8ddJ)	.	8ffnL	.	.	.	.
8dd	.	4r	.	8gg	.	4r	.	.
8r	.	.	.	8eeJ	.	.	.	.
8ddd	.	(8dL	.	8ff	.	4bbt	.	.
8r	.	8ddJ)	.	8r	.	.	.	.
.	.	.	.	.	.	16qqaa/LL	.	.
.	.	.	.	.	.	16qqbb/JJ	.	.
=211	=211	=211	=211	=211	=211	=211	=211	=211
4r	.	(8ddL	.	8r	.	(2eee	.	i6
.	.	8ccJ)	.	(8eeL	.	.	.	.
8cc	.	4r	.	8ff	.	.	.	.
8r	.	.	.	8ddJ	.	.	.	.
8ccc	.	(8cL	.	8ee)	.	4aaT)	.	.
8r	.	8ccJ)	.	8r	.	.	.	.
=212	=212	=212	=212	=212	=212	=212	=212	=212
4r	.	(8ccL	.	8r	.	4gg	.	VII64
.	.	8bJ)	.	(8ddL	.	.	.	.
8b	.	4r	.	8ee	.	4r	.	.
8r	.	.	.	8ccJ	.	.	.	.
8bb	.	(8BL	.	8dd)	.	4ggT	.	.
8r	.	8bJ)	.	8r	.	.	.	.
.	.	.	.	.	.	16qqff#X/LL	.	.
.	.	.	.	.	.	16qqgg/JJ	.	.
=213	=213	=213	=213	=213	=213	=213	=213	=213
4r	.	(8AL	.	8r	.	4ccc'	.	i
*clefC4	*	*	*	*	*	*	*	*
8ryy	.	4r	.	8dd	.	4ryy	.	iio2
8r	.	.	.	8b	.	.	.	.
(8a	.	4r	.	8cc	.	4ee')	.	i
8gJ	.	.	.	8bJ	.	.	.	.
=214	=214	=214	=214	=214	=214	=214	=214	=214
8fL	.	4r	.	8aL	.	(4ddT	.	iv
8g	.	.	.	8b	.	.	.	.
8e	.	(8gL	.	8g	.	4cc')	.	III6
8d	.	8f	.	8a	.	.	.	.
8c	.	8e	.	8b	.	(4ee	.	III(7)
8eJ)	.	8gJ)	.	8ccJ)	.	.	.	.
=215	=215	=215	=215	=215	=215	=215	=215	=215
(2.f	<[	(2.a	<[	(8ccL	<	2dd	<	iio7
.	.	.	.	8b	.	.	.	.
.	.	.	.	8cc	.	.	.	.
.	.	.	.	8a	.	.	.	.
.	.	.	.	8b	.	4aa	[[	.
.	.	.	.	8ccJ	[[	.	.	.
=216	=216	=216	=216	=216	=216	=216	=216	=216
2e)	>	2b)	>	8eeL	>	2gg#X)	>	V
.	.	.	.	8b	.	.	.	.
.	.	.	.	8ee	.	.	.	.
.	.	.	.	8dd	.	.	.	.
(4e	]	(4E	]	8cc	.	(4ccc'	<[	III
.	.	.	.	8eeJ)	]]	.	.	.
=217	=217	=217	=217	=217	=217	=217	=217	=217
(2d)	<	2F)	<	(2dd	<	2ccc'	.	iv7
4a	[[	[4F	[[	4aa	[[	4ccc')	[[	VI6
=218	=218	=218	=218	=218	=218	=218	=218	=218
2g#X)	>	2F]	>	2gg#X)	>	2ccc	>	VI(#2)
!LO:TX:a:i:t=cresc.	!	!LO:TX:a:i:t=cresc.	!	!LO:TX:a:i:t=cresc.	!	!LO:TX:a:i:t=cresc.	!	!
[4a	]	[4f	]	[4aa	]	(8cccL	]	i
.	.	.	.	.	.	8eeeJ	.	.
=219	=219	=219	=219	=219	=219	=219	=219	=219
2a]	.	2f]	.	2aa]	.	2ddd	.	iv6
(4a	.	[4f	.	(4aa	.	4aaa	.	VI6
=220	=220	=220	=220	=220	=220	=220	=220	=220
2b-X)	.	2f]	.	2bb-X)	.	2ggg#X)	.	.bii7
*clefG2	*	*	*	*	*	*	*	*
(8aaL	ff	[4F [4c	f	[4cc [4aa	f	[4aaa	f	VI6
8cccJ	.	.	.	.	.	.	.	.
=221	=221	=221	=221	=221	=221	=221	=221	=221
8bbnL	.	4.F] 4.c]	.	4.cc] 4.aa]	.	4.aaa]	.	.
8ccc	.	.	.	.	.	.	.	.
8aaJ)	.	.	.	.	.	.	.	.
8r	.	8r	.	8r	.	8r	.	.
!LO:TX:a:i:t=sempre ff	!	!	!	!	!	!	!	!
(8aaL	.	[4E [4c	sf	[4cc [4aa	sf	[4aaa	sf	i
8cccJ	.	.	.	.	.	.	.	.
=222	=222	=222	=222	=222	=222	=222	=222	=222
8bbL	.	4.E] 4.c]	.	4.cc] 4.aa]	.	4.aaa]	.	.
8ccc	.	.	.	.	.	.	.	.
8aaJ)	.	.	.	.	.	.	.	.
8r	.	8r	.	8r	.	8r	.	.
(8aaL	.	[4D [4d	sf	[4a [4ff	sf	[4aaa	sf	iv64
8cccJ	.	.	.	.	.	.	.	.
=223	=223	=223	=223	=223	=223	=223	=223	=223
8bbL	.	4.D] 4.d]	.	4.a] 4.ff]	.	4.aaa]	.	.
8ccc	.	.	.	.	.	.	.	.
8aaJ)	.	.	.	.	.	.	.	.
8r	.	8r	sf	8r	.	8r	.	.
(8aaL	.	[4C [4c	.	[4ee	sf	[4aaa	sf	i
8cccJ	.	.	.	.	.	.	.	.
=224	=224	=224	=224	=224	=224	=224	=224	=224
8bbL	.	4.C] 4.c]	.	4.ee]	.	4.aaa]	.	.
8ccc	.	.	.	.	.	.	.	.
8aaJ)	.	.	.	.	.	.	.	.
8r	.	8r	.	8r	.	8r	.	.
4r	.	4r	.	4r	.	(4gg#X	p	.
=225	=225	=225	=225	=225	=225	=225	=225	=225
8r	p	2.r	.	2.r	.	2.aa)	.	i
(8CC	.	.	.	.	.	.	.	.
8EEL	.	.	.	.	.	.	.	.
8AAJ	.	.	.	.	.	.	.	.
8BBL	.	.	.	.	.	.	.	.
8CJ	.	.	.	.	.	.	.	.
=226	=226	=226	=226	=226	=226	=226	=226	=226
8C#XL	.	4r	.	2.r	.	(4ff	.	.bII
8D	.	.	.	.	.	.	.	.
8E	.	4r	.	.	.	4dd)	.	.
8G	.	.	.	.	.	.	.	.
8A	.	(8c#XL	p	.	.	4b-X'	.	.
8B-XJ)	.	8dJ	.	.	.	.	.	.
=227	=227	=227	=227	=227	=227	=227	=227	=227
4E	.	8BnL	.	4r	.	(2.a	.	i64
.	.	8cn	.	.	.	.	.	.
4r	.	8d#X	.	4r	.	.	.	.
.	.	8e	.	.	.	.	.	.
4r	.	8g#X	.	(8bL	p	.	.	.
.	.	8aJ	.	8ccJ	.	.	.	.
=228	=228	=228	=228	=228	=228	=228	=228	=228
4r	.	8a#XL	.	8cc#XL	.	4g#X	.	V
.	.	8b	.	8dd	.	.	.	.
4r	.	8an	.	8ccn	.	4ee)	.	.
.	.	8g#XJ)	.	8bJ)	.	.	.	.
(8aaL	ff	[4F	ff	[4c [4a	ff	[4aa	ff	VI6
8cccJ	.	.	.	.	.	.	.	.
=229	=229	=229	=229	=229	=229	=229	=229	=229
8bbnL	.	4.F]	.	4.c] 4.a]	.	4.aa]	.	.
8ccc	.	.	.	.	.	.	.	.
8aaJ)	.	.	.	.	.	.	.	.
8r	.	8r	.	8r	.	8r	.	.
!LO:TX:a:i:t=sempre ff	!	!	!	!	!	!	!	!
(8aaL	.	[4E	sf	[4cc [4aa	sf	[4ccc	sf	i
8cccJ	.	.	.	.	.	.	.	.
=230	=230	=230	=230	=230	=230	=230	=230	=230
8bbL	.	4.E]	.	4.cc] 4.aa]	.	4.ccc]	.	.
8ccc	.	.	.	.	.	.	.	.
8aaJ)	.	.	.	.	.	.	.	.
8r	.	8r	sf	8r	.	8r	.	.
(8aaL	.	[4D [4d	.	[4a [4ff	sf	[4fff	sf	iv64
8cccJ	.	.	.	.	.	.	.	.
=231	=231	=231	=231	=231	=231	=231	=231	=231
8bbL	.	4.D] 4.d]	.	4.a] 4.ff]	.	4.fff]	.	.
8ccc	.	.	.	.	.	.	.	.
8aaJ)	.	.	.	.	.	.	.	.
8r	.	8r	sf	8r	.	8r	.	.
(8aaL	.	[4C [4c	.	[4a [4ee	sf	[4aaa	sf	i
8cccJ	.	.	.	.	.	.	.	.
=232	=232	=232	=232	=232	=232	=232	=232	=232
8bbL	.	4.C] 4.c]	.	4.a] 4.ee]	.	4.aaa]	.	.
8ccc	.	.	.	.	.	.	.	.
8aaJ)	.	.	.	.	.	.	.	.
8r	.	8r	.	8r	.	8r	.	.
*clefF4	*	*	*	*	*	*	*	*
[4FF	p	4r	.	4r	.	(4aa	p	VI
=233	=233	=233	=233	=233	=233	=233	=233	=233
(8FFL]	.	2.r	.	2.r	.	2.aaa)	.	.
8AA	.	.	.	.	.	.	.	.
8BB	.	.	.	.	.	.	.	.
8C	.	.	.	.	.	.	.	.
8E	.	.	.	.	.	.	.	.
8FJ	.	.	.	.	.	.	.	.
=234	=234	=234	=234	=234	=234	=234	=234	=234
8AL	.	(8c#XL	p	4r	.	(4fff	.	.bII
8B-XJ)	.	8d	.	.	.	.	.	.
4r	.	8e	.	4r	.	4ddd)	.	.
.	.	8f	.	.	.	.	.	.
4r	.	8a	.	(8cc#XL	p	4bb-X'	.	.
.	.	8b-XJ)	.	8ddJ)	.	.	.	.
=235	=235	=235	=235	=235	=235	=235	=235	=235
(8BBnL	.	2.b-X	.	2.bb-X	.	(8d#XL	.	III7
8C	.	.	.	.	.	8e	.	.
8D#X	.	.	.	.	.	8f#X	.	.
8E	.	.	.	.	.	8gn	.	.
8F#X	.	.	.	.	.	8a	.	.
8GJ	.	.	.	.	.	8b-XJ	.	.
=236	=236	=236	=236	=236	=236	=236	=236	=236
8BL	.	(4g	.	(4gg	.	8dd#XL	.	.
8c	.	.	.	.	.	8ee	.	.
8d#X	.	4e)	.	4ee)	.	8ff#X	.	.
8e	.	.	.	.	.	8ggn	.	.
8f#X	.	4cn'	.	4ccn'	.	8aa	.	.
8gJ)	.	.	.	.	.	8bb-XJ)	.	.
=237	=237	=237	=237	=237	=237	=237	=237	=237
!LO:TX:a:i:t=cresc.	!	!LO:TX:a:i:t=cresc.	!	!	!	!LO:TX:a:i:t=cresc.	!	!
(8CCL	.	(8EL	.	2.r	.	(2.ccc	.	III
8DD	.	8F	.	.	.	.	.	.
8EE	.	8G	.	.	.	.	.	.
8CC	.	8E	.	.	.	.	.	.
8DD	.	8F	.	.	.	.	.	.
8EEJ	.	8GJ	.	.	.	.	.	.
=238	=238	=238	=238	=238	=238	=238	=238	=238
!	!	!	!	!LO:TX:a:i:t=cresc.	!	!	!	!
8FFnL	.	8AL	.	[2.cc	.	4aa	.	VI
8GG	.	8B-X	.	.	.	.	.	.
8AA	.	8c	.	.	.	4ffn)	.	.
8FF	.	8A	.	.	.	.	.	.
8GG	.	8B-	.	.	.	4ee'	.	III43
8AAJ)	.	8cJ)	.	.	.	.	.	.
=239	=239	=239	=239	=239	=239	=239	=239	=239
!LO:TX:a:i:t=dim.	!	!LO:TX:a:i:t=dim.	!	!LO:TX:a:i:t=dim.	!	!LO:TX:a:i:t=dim.	!	!
(8BB-XL	.	(8dL	.	(8ccL]	.	(4ddn	.	.bII
8C	.	8e	.	8b-X	.	.	.	.
8D	.	8f	.	8a	.	4b-X	.	.
8BB-	.	8d	.	[8g	.	.	.	.
8BBn	.	8F	.	8g]	.	4a	.	VI64
[8CJ	.	8cJ	.	[8fJ	.	.	.	.
=240	=240	=240	=240	=240	=240	=240	=240	=240
2C])	.	4B-X	.	8fL]	.	4g	.	III7
.	.	.	.	8e	.	.	.	.
.	.	4E	.	8d	.	4cc	.	.
.	.	.	.	8cJ	.	.	.	.
[4C	.	[4G)	.	[4B-X)	.	4e	.	.
=241	=241	=241	=241	=241	=241	=241	=241	=241
2C]	p	(4G]	p	(4B-]	p	4g	p	VI64(75)
.	.	4F)	.	4A)	.	4f)	.	VI64
[4C	.	[4a	.	(8ccL	.	(4ddd	.	.
.	.	.	.	8ffJ)	.	.	.	.
=242	=242	=242	=242	=242	=242	=242	=242	=242
2C]	.	(8aL]	.	(8ffL	.	4bbn	.	III7(7642)
.	.	8g	.	8ee	.	.	.	.
.	.	8f	.	8dd	.	4ccc	.	.
.	.	8eJ	.	8ccJ	.	.	.	.
[4c	.	4g)	.	[4b-X)	.	4ee	.	.
=243	=243	=243	=243	=243	=243	=243	=243	=243
2c]	.	4e	.	(4b-]	.	4gg	.	VI64(753)
.	.	4f	.	4a)	.	4ff)	.	VI64
(4D	.	4r	.	4r	.	4r	.	iv
=244	=244	=244	=244	=244	=244	=244	=244	=244
4BB	.	4r	.	2.r	.	2.r	.	v
4C	.	4r	.	.	.	.	.	.
4EE	pp	(4g	pp	.	.	.	.	.
=245	=245	=245	=245	=245	=245	=245	=245	=245
4GG	.	4e	.	2.r	.	2.r	.	iv
4FF	.	4f	.	.	.	.	.	.
4D	.	[4A	.	.	.	.	.	.
=246	=246	=246	=246	=246	=246	=246	=246	=246
4GG	.	4A]	.	2.r	.	2.r	.	v
4F	.	4B-X	.	.	.	.	.	.
4E	.	[4Bn	.	.	.	.	.	.
=247	=247	=247	=247	=247	=247	=247	=247	=247
4G	.	4B]	.	4r	.	2.r	.	VI
4AA)	.	4c)	.	4r	.	.	.	.
!LO:TX:b:i:t=sempre pp	!	!LO:TX:a:i:t=sempre pp	!	!	!	!	!	!
(4F	.	(4C	.	(4a	pp	.	.	.
=248	=248	=248	=248	=248	=248	=248	=248	=248
4C	.	4E-X	.	4f#X	.	2.r	.	VII2
4BB	.	4D	.	4g	.	.	.	.
[4F	.	[4G)	.	4Bn	.	.	.	.
=249	=249	=249	=249	=249	=249	=249	=249	=249
4F]	.	(4G]	.	4d	.	2.r	.	VI
4E	.	4g	.	4c	.	.	.	.
[4F	.	[4c	.	4a	.	.	.	.
=250	=250	=250	=250	=250	=250	=250	=250	=250
4F]	.	4c]	.	4d	.	2.r	.	VII7
4F#X	.	4a	.	4cc	.	.	.	.
[4G	.	4d	.	4b	.	.	.	.
=251	=251	=251	=251	=251	=251	=251	=251	=251
4G]	.	4f	.	4dd	.	4r	.	.
4c)	.	4en)	.	4cc)	.	4r	.	III
!	!	!	!	!LO:TX:a:i:t=sempre pp	!	!	!	!
([4GG	pp	(4B	.	(4ffn	.	(4ddd	pp	VII
=252	=252	=252	=252	=252	=252	=252	=252	=252
4GG]	.	4f	.	4dd	.	4bb#X	.	.
4C)	.	4e	.	4g	.	4ccc	.	III
4r	.	4g	.	[4b-X	.	4ee	.	III43
=253	=253	=253	=253	=253	=253	=253	=253	=253
!	!	!	!	!	!	!LO:TX:a:i:t=sempre pp	!	!
2.r	.	4e	.	4b-]	.	4gg	.	.
.	.	4f	.	4a)	.	4ff	.	VI
.	.	[4B-X	.	([4ff	.	4ddd	.	.bII
=254	=254	=254	=254	=254	=254	=254	=254	=254
4r	.	4B-]	.	4ff]	.	4gg	.	vii65
4r	.	4Bn	.	4dd	.	4fff	.	VII65
(4G	pp	4c	.	4g	.	4ddd	.	III64(7)
=255	=255	=255	=255	=255	=255	=255	=255	=255
4E	.	4G)	.	4b-X	.	4ggg	.	vo
4F)	.	4c	.	4a)	.	4aa)	.	VI
([4DD	.	4r	.	(4a	.	([4fff	.	iv
=256	=256	=256	=256	=256	=256	=256	=256	=256
4DD]	.	4r	.	4g#X	.	4fff]	.	#viio43
4CC#X)	.	4r	.	4a	.	4eee)	.	I6
([4AA	.	(4e	.	4c#X	.	4ee	.	I
=257	=257	=257	=257	=257	=257	=257	=257	=257
4AA]	.	4cc#X	.	4e	.	4gg	.	I7
4D)	.	4dd)	.	4d)	.	4ff	.	iv
(4B	.	(4g	.	4d	.	4r	.	VII6
=258	=258	=258	=258	=258	=258	=258	=258	=258
4cn	.	4f#X	.	4e-X	.	2.r	.	VII
4B)	.	4g)	.	4d	.	.	.	.
(4GG	.	([4D	.	([4Bn	.	.	.	.
=259	=259	=259	=259	=259	=259	=259	=259	=259
4FF#X	.	8DL]	.	8BL]	.	4r	.	ii64
.	.	8FnJ	.	8dJ	.	.	.	.
4GG)	.	4E)	.	4cn)	.	4r	.	III64
[4GG	.	(4E	.	([4c	.	(4gg	pp	.
=260	=260	=260	=260	=260	=260	=260	=260	=260
2GG]	.	4E-X	.	4c]	.	4ff#X	.	VII(#7b64)
.	.	4D	.	4B	.	4gg)	.	VII
*clefC4	*	*	*	*	*	*	*	*
(4g	.	4G	.	[4d	.	([4bn	.	.
=261	=261	=261	=261	=261	=261	=261	=261	=261
4f#X	.	4F#X	.	8dL]	.	8bL]	.	ii64
.	.	.	.	8fJ	.	8ddJ	.	.
4g)	.	4G)	.	4e)	.	4cc)	.	III64
!	!	!	!	!LO:TX:a:i:t=sempre pp	!	!LO:TX:a:i:t=sempre pp	!	!
4r	.	4r	.	(4cc	.	(4eee	.	III
=262	=262	=262	=262	=262	=262	=262	=262	=262
!LO:TX:a:i:t=sempre pp	!	!LO:TX:a:i:t=sempre pp	!	!	!	!	!	!
4r	.	4r	.	4b	.	4ddd#X	.	II
*clefF4	*	*	*	*	*	*	*	*
4r	.	(4E	.	4cc	.	4eee	.	i64
([4E	.	[4d	.	4b	.	4gg#X	.	V7
=263	=263	=263	=263	=263	=263	=263	=263	=263
4E]	.	4d]	.	4g#X	.	4bb	.	.
4Fn	.	4c	.	4a	.	4aa)	.	VI
4E	.	[4a	.	4cc)	.	(4aa	.	i64
=264	=264	=264	=264	=264	=264	=264	=264	=264
4D#X	.	4a]	.	2.b	.	4.bb	.	II65
4E	.	4f#X	.	.	.	.	.	.
.	.	.	.	.	.	8eeL	.	.
[4GG#X	.	[4e	.	.	.	8ddd)	.	V65
.	.	.	.	.	.	8bb'J	.	.
=265	=265	=265	=265	=265	=265	=265	=265	=265
4GG#]	.	4e]	.	4cc	.	(4.ccc	.	i
4AA	.	4c)	.	(4e	.	.	.	.
.	.	.	.	.	.	8eeL	.	.
4C)	.	(4c	.	[4A	.	8fff)	.	.
.	.	.	.	.	.	8eee'J	.	.
=266	=266	=266	=266	=266	=266	=266	=266	=266
!	!	!LO:TX:a:i:t=cresc.	!	!LO:TX:a:i:t=cresc.	!	!LO:TX:a:i:t=cresc.	!	!
4r	.	4.B	.	4A]	.	(4ddd#X	.	II7
!LO:TX:a:i:t=cresc.	!	!	!	!	!	!	!	!
!LO:TX:a:t=pizz.	!	!	!	!	!	!	!	!
4EE	.	.	.	4G#X)	.	4eee	.	V
.	.	8EL)	.	.	.	.	.	.
4E	.	8d	.	(8bL	.	4gg#X	.	.
.	.	([8BJ	.	8g#XJ)	.	.	.	.
=267	=267	=267	=267	=267	=267	=267	=267	=267
4r	.	4B]	.	(4.c	.	4bb	.	i(2)
4E	.	4A)	.	.	.	4cc	.	.
.	.	.	.	8AL	.	.	.	.
4AA	.	4r	.	8e)	.	4aa	.	.
.	.	.	.	[8cJ	.	.	.	.
=268	=268	=268	=268	=268	=268	=268	=268	=268
4r	.	(4.f	.	(4c]	.	4dd	.	VII7(4)
4GGn	.	.	.	8B)	.	4ccc	.	.
.	.	8GnL	.	8r	.	.	.	.
4G	.	8f)	.	(8ddL	.	4bb	.	.
.	.	[8dJ	.	8bJ)	.	.	.	.
=269	=269	=269	=269	=269	=269	=269	=269	=269
4r	.	(4d]	.	(4.cc	.	4ddd	.	III(2)
4G	.	4c)	.	.	.	4ee	.	.
.	.	.	.	8gnL	.	.	.	.
4C	.	4r	.	8ee)	.	4ccc)	.	.
.	.	.	.	8ccJ	.	.	.	.
=270	=270	=270	=270	=270	=270	=270	=270	=270
4r	.	(4.d	.	2.r	.	(4ff	.	VII7
4BB	.	.	.	.	.	4eee	.	.
.	.	8GL	.	.	.	.	.	.
4G	.	8f	.	.	.	4ddd	.	.
.	.	8dJ)	.	.	.	.	.	.
=271	=271	=271	=271	=271	=271	=271	=271	=271
!	!	!	!	!	!	!LO:TX:a:t=accel.	!	!
4r	.	4r	.	(4.g	.	4fff	.	III(4)
4G	.	(8eL	.	.	.	4ee	.	.
.	.	8G	.	8eL	.	.	.	.
4C	.	8e)	.	8cc)	.	4eee)	.	.
.	.	8cJ	.	8gJ	.	.	.	.
=272	=272	=272	=272	=272	=272	=272	=272	=272
4r	.	4r	.	(4.g	.	(4fff	.	.
4G	.	(8eL	.	.	.	4ee	.	.
.	.	8G	.	8eL	.	.	.	.
4C	.	8e)	.	8cc)	.	4eee)	.	.
.	.	8cJ	.	8gJ	.	.	.	.
=273	=273	=273	=273	=273	=273	=273	=273	=273
4r	.	(4.dd	.	2.r	.	(4fff	.	V7(2)
4BB	.	.	.	.	.	4ee	.	.
.	.	8bL	.	.	.	.	.	.
4G#X	.	8dd)	.	.	.	4eee)	.	.
.	.	8eJ	.	.	.	.	.	.
=274	=274	=274	=274	=274	=274	=274	=274	=274
4r	.	2.r	.	(4.ccc	.	(4fff	.	i(6)
4A	.	.	.	.	.	4ee	.	.
.	.	.	.	8eeL	.	.	.	.
4AA	.	.	.	8ccc	.	4eee)	.	.
.	.	.	.	8aaJ)	.	.	.	.
=275	=275	=275	=275	=275	=275	=275	=275	=275
4r	.	(4.d	.	2.r	.	(4fff	.	V65(7)
4G#X	.	.	.	.	.	4ee	.	.
.	.	8BL	.	.	.	.	.	.
4GG#X	.	8d)	.	.	.	4eee)	.	.
.	.	8EJ	.	.	.	.	.	.
=276	=276	=276	=276	=276	=276	=276	=276	=276
!LO:TX:a:t=arco	!	!	!	!	!	!	!	!
(4.GG#X	.	2.r	.	(4.B	.	(8fffL	.	V7(2)
.	.	.	.	.	.	8ee	.	.
.	.	.	.	.	.	8eee)	.	.
8EEL	.	.	.	8G#XL	.	8eee'	.	.
8BB)	.	.	.	8d)	.	(8eee	.	.
8GG#'J	.	.	.	8B'J	.	8eeJ)	.	.
=277	=277	=277	=277	=277	=277	=277	=277	=277
(8DL	.	4r	.	(8BL	.	(8fffL	.	.
8BB	.	.	.	8G#X	.	8ee	.	.
8G#XJ)	.	8r	.	8dJ)	.	8eee)	.	.
8r	.	(8DL	.	8r	.	8eee'	.	.
4r	.	8B	.	4r	.	(8eee	.	.
.	.	8G#XJ)	.	.	.	8eeJ)	.	.
=278	=278	=278	=278	=278	=278	=278	=278	=278
2.r	.	4r	.	(8dL	.	(8fffL	.	.
.	.	.	.	8B	.	8ee	.	.
.	.	8r	.	8g#XJ)	.	8eee)	.	.
.	.	(8dL	.	8r	.	8eee'	.	.
.	.	8b#X	.	4r	.	(8eee	.	.
.	.	8g#XJ)	.	.	.	8eeJ)	.	.
=279	=279	=279	=279	=279	=279	=279	=279	=279
4r	.	(8bL	.	(8ddL	.	(8fffL	.	.
.	.	8g#X	.	8b	.	8ee	.	.
*clefG2	*	*	*	*	*	*	*	*
8r	.	8ddJ)	.	8bbJ)	.	8eee)	.	.
(8gg#XL	.	(8ddL	.	(8bbL	.	8eee'	.	.
8aa	.	8cc	.	8aa	.	(8eee	.	.
8bbJ)	.	8ddJ)	.	8gg#XJ)	.	8eeJ)	.	.
=280||	=280||	=280||	=280||	=280||	=280||	=280||	=280||	=280||
*MM210	*	*MM210	*	*MM210	*	*MM210	*	*
!	!	!	!	!	!	!LO:TX:a:t=[quarter]=210	!	!
(4.aa	f	8ccL	f	8aaL	f	(8fffL	sf	i
.	.	8aJ	.	8ccJ	.	8ee	.	.
.	.	8AL	.	8cL	.	8eee)	.	.
8eeL	.	8A	.	8c	.	8eee'	.	.
8ccc	.	8A	.	8c	.	8eee	.	.
8aa'J)	.	8AJ	.	8cJ	.	8eeJ	.	.
=281	=281	=281	=281	=281	=281	=281	=281	=281
(2aa	sf	8BL	sf	8dL	sf	(8fffL	sf	V6(2)
.	.	8bJ	.	8ddJ	.	8ee	.	.
.	.	8BL	.	8dL	.	8eee)	.	.
.	.	8B	.	8d	.	8eee'	.	.
4gg#X)	.	8B	.	8d	.	(8eee	.	.
.	.	8BJ	.	8dJ	.	8eeJ)	.	.
=282	=282	=282	=282	=282	=282	=282	=282	=282
(4.aa	sf	8cL	sf	8eL	sf	(8fffL	sf	i
.	.	8AJ	.	8cJ	.	8ee	.	.
.	.	8FL	.	8AL	.	8eee)	.	.
8bbL	.	8F	.	8A	.	8aaaJ	.	.
8ccc	.	8F	.	8A	.	8aaaL	.	.
8dddJ	.	8FJ	.	8AJ	.	8aaaJ	.	.
=283	=283	=283	=283	=283	=283	=283	=283	=283
4eee')	sf	8EL	sf	8BL	sf	(4aaa	sf	V
.	.	8E	.	8B	.	.	.	.
(4eee'	.	8E	.	8B	.	4ggg#X)	.	.
.	.	8EJ	.	8BJ	.	.	.	.
4eee')	.	8EL	.	8eL	.	4eee'	.	.
.	.	8EJ	.	8eJ	.	.	.	.
=284	=284	=284	=284	=284	=284	=284	=284	=284
2eee	sf	8CL	sf	8B-XL 8e	sf	2eee	sf	III65
.	.	8C	.	8B- 8e	.	.	.	.
.	.	8C	.	8B- 8e	.	.	.	.
.	.	8CJ	.	8B- 8e	.	.	.	.
(4eee	.	8CL 8G	.	8B- 8e	.	(4eee	.	.
.	.	8CJ 8G	.	8B-J 8e	.	.	.	.
=285	=285	=285	=285	=285	=285	=285	=285	=285
4.ggg	sf	8FL	sf	8AL 8f	sf	4.gggn	sf	VI
.	.	8F	.	8A 8f	.	.	.	.
.	.	8F	.	8A 8f	.	.	.	.
8fffL)	.	8F	.	8A 8f	.	8fffL)	.	.
8eee'	.	8F	.	8A 8f	.	8eee'	.	.
8ddd'J	.	8FJ	.	8AJ 8f	.	8ddd'J	.	.
=286	=286	=286	=286	=286	=286	=286	=286	=286
(2ccc	sf	8GL	sf	8cL 8e	sf	(2ccc	sf	III
.	.	8G	.	8c 8e	.	.	.	.
.	.	8G	.	8c 8e	.	.	.	.
.	.	8GJ	.	8cJ 8e	.	.	.	.
8eeeL	.	8GL	.	8BnL 8d	.	8eeeL	.	VII7
8dddJ)	.	8GJ	.	8BnJ 8d	.	8dddJ)	.	.
=287	=287	=287	=287	=287	=287	=287	=287	=287
4ddd	sf	8GL	sf	8BnL 8dn	sf	4ddd	sf	VII2
.	.	8G	.	8B 8g	.	.	.	.
4r	.	8G	.	8B 8g	.	4r	.	.
.	.	8GJ	.	8BJ 8g	.	.	.	.
4r	.	8DL 8A	.	8dL 8f	.	4r	.	iv
.	.	8DJ 8A	.	8dJ 8f	.	.	.	.
=288	=288	=288	=288	=288	=288	=288	=288	=288
4r	.	8DL 8A	sf	8dL 8f	sf	4r	.	.
.	.	8D 8A	.	8d 8f	.	.	.	.
(4dd	sf	8D 8A	.	8d 8f	.	(4ddd	sf	.
.	.	8D 8A	.	8d 8f	.	.	.	.
4ff)	.	8D 8A	.	8d 8f	.	4fff)	.	.
.	.	8DJ 8A	.	8dJ 8f	.	.	.	.
=289	=289	=289	=289	=289	=289	=289	=289	=289
2.aa	sf	8C#XL	sf	8AL 8e	sf	2.aaa	sf	i
.	.	8C#	.	8A 8e	.	.	.	.
.	.	8C#	.	8A 8e	.	.	.	.
.	.	8C#J	.	8A 8e	.	.	.	.
.	.	8CnL	.	8A 8e	.	.	.	.
.	.	8CJ	.	8AJ 8e	.	.	.	.
=290	=290	=290	=290	=290	=290	=290	=290	=290
4r	.	8EL	sf	8GL	sf	4r	.	v
.	.	8E	.	8BJ 8g	.	.	.	.
(4ee	sf	8E	.	8BL 8g	.	(4ee	sf	.
.	.	8E	.	8B 8g	.	.	.	.
4gg)	.	8E	.	8B 8g	.	4gg)	.	.
.	.	8EJ	.	8BJ 8g	.	.	.	.
=291	=291	=291	=291	=291	=291	=291	=291	=291
2.bb	sf	8D#XL	sf	8BL 8f#X	sf	2.bb	sf	#viio43
.	.	8D#	.	8B 8f#	.	.	.	.
.	.	8D#	.	8B 8f#	.	.	.	.
.	.	8D#J	.	8BJ 8f#	.	.	.	.
.	.	8DnL	.	8G#XL 8fn	.	.	.	.
.	.	8DJ	.	8G#J	.	.	.	.
=292	=292	=292	=292	=292	=292	=292	=292	=292
4r	.	8CL	sf	8eL	sf	4r	.	III
.	.	8cJ	.	8eJ	.	.	.	.
(4aa	sf	8AL	.	8cL 8e	.	(4aa	sf	i
.	.	8A	.	8c 8e	.	.	.	.
4ccc)	.	8E 8A	.	8c 8e	.	4ccc)	.	.
.	.	8EJ 8A	.	8cJ 8e	.	.	.	.
=293	=293	=293	=293	=293	=293	=293	=293	=293
2eee	sf	8EL 8G#X	sf	8BL 8e	sf	2eee	sf	V
.	.	8E 8G#	.	8B 8e	.	.	.	.
.	.	8E 8G#	.	8B 8e	.	.	.	.
.	.	8EJ 8G#	.	8BJ 8e	.	.	.	.
4eee	.	8EL 8A	.	8cL 8e	.	4eee	.	i64
.	.	8EJ 8A	.	8cJ 8e	.	.	.	.
=294	=294	=294	=294	=294	=294	=294	=294	=294
2eee	>	8EL 8G#X	>	8BL 8e	>	[2.eee	>]	V
.	.	8E 8G#	.	8B 8e	.	.	.	.
.	.	8E 8G#	.	8B 8e	.	.	.	.
.	.	8EJ 8G#	.	8BJ 8e	.	.	.	.
(8gg#XL	p	8EL 8G#	] p	8BL 8e	] p	.	.	.
8aaJ	]]	8EJ 8G#	.	8BJ 8e	.	.	.	.
=295	=295	=295	=295	=295	=295	=295	=295	=295
4.bb	.	2.E 2.G#X	.	2.B 2.e	.	2.eee_	p	.
8gg#XL	.	.	.	.	.	.	.	.
8ddd	.	.	.	.	.	.	.	.
8bbJ)	.	.	.	.	.	.	.	.
=296	=296	=296	=296	=296	=296	=296	=296	=296
(4bb	.	[2.E [2.A	.	[2.c#X [2.e	.	2.eee_	.	I
8aaL	.	.	.	.	.	.	.	.
8gg#X	.	.	.	.	.	.	.	.
8aa	.	.	.	.	.	.	.	.
8bbJ)	.	.	.	.	.	.	.	.
=297	=297	=297	=297	=297	=297	=297	=297	=297
(4.ccc#X	.	2.E] 2.A]	.	2.c#] 2.e]	.	2.eee_	.	I.I
8aaL	.	.	.	.	.	.	.	.
8eee	.	.	.	.	.	.	.	.
8ccc#J)	.	.	.	.	.	.	.	.
=298||	=298||	=298||	=298||	=298||	=298||	=298||	=298||	=298||
*k[f#c#g#]	*	*k[f#c#g#]	*	*k[f#c#g#]	*	*k[f#c#g#]	*	*
(4ccc#	.	2E 2B	.	2d 2e	.	(2.eee]	.	V(64)
8bbL	.	.	.	.	.	.	.	.
8aa#X	.	.	.	.	.	.	.	.
8bb	.	4E 4A	.	4c# 4e	.	.	.	.
8ccc#J)	.	.	.	.	.	.	.	.
=299	=299	=299	=299	=299	=299	=299	=299	=299
2ddd	.	(4E	.	(4B	.	4gg#	.	V7
.	.	4F#	.	4b	.	4aa	.	ii43
(4ddd	.	4G#	.	[4e)	.	4bb	.	V65
=300	=300	=300	=300	=300	=300	=300	=300	=300
2ccc#	<	2A	.	(4e]	.	2ccc#	<	I
.	.	.	.	4ee	.	.	.	.
4bb	.	4G#	<	4e)	<	[4eee	.	V6
=301	=301	=301	=301	=301	=301	=301	=301	=301
2aa	.	2F#)	.	(4A	.	2eee]	.	#viio6(2)/V
.	.	.	.	4a	.	.	.	.
4bb	[[	4F#	.	[4A)	.	4ddd#X	.	V43/V
=302	=302	=302	=302	=302	=302	=302	=302	=302
2aa	>	2E	.	(4A]	>	4fff#	.	V(4+2)
.	.	.	.	2B)	] ]]	8eeeL)	[	V(4)
.	.	.	.	.	.	(8ee	>	.
4gg#)	]]	[4E	[ > ]]	.	.	8gg#	.	V
.	.	.	.	.	.	8aaJ)	]]	.
=303	=303	=303	=303	=303	=303	=303	=303	=303
(2.gg#	.	4E]	.	(2G#	.	(8aa#XL	.	.
.	.	.	.	.	.	8bbJ)	.	.
.	.	4d	.	.	.	(8bbL	.	V7
.	.	.	.	.	.	8gg#	.	.
.	.	[4E	.	4B	.	8ddd	.	.
.	.	.	.	.	.	8bbJ)	.	.
=304	=304	=304	=304	=304	=304	=304	=304	=304
[2.aa	.	4E]	.	4c#	.	(8bbL	.	I64
.	.	.	.	.	.	8aanJ)	.	.
.	.	4c#	.	4A	.	(8aaL	.	.
.	.	.	.	.	.	8gg#	.	.
.	.	[4E	.	[4c#)	.	8aa	.	.
.	.	.	.	.	.	8bbJ)	.	.
=305	=305	=305	=305	=305	=305	=305	=305	=305
2aa]	.	4E]	.	(4c#]	.	(8bbL	.	.
.	.	.	.	.	.	8ccc#J)	.	.
.	.	4c#	.	4A	.	(8ccc#L	.	.
.	.	.	.	.	.	8aa	.	.
4aa#X	.	[4E	.	4c#)	.	8eee	.	#io43
.	.	.	.	.	.	8ccc#J)	.	.
=306	=306	=306	=306	=306	=306	=306	=306	=306
[4bb	.	4E]	.	[4d	.	(8ccc#L	.	V7
.	.	.	.	.	.	8bbJ)	.	.
8bbL]	.	4d	.	(8dL]	.	(8bbL	.	.
8aa#X	.	.	.	8c#	.	8aa#X	.	.
8bb	.	[4E	.	8B	.	8bb	.	.
8ccc#J)	.	.	.	8AJ	.	8ccc#J)	.	.
=307	=307	=307	=307	=307	=307	=307	=307	=307
2ddd	.	(4E]	.	4G#	.	2ddd	.	iv6
.	.	4Fn	.	4A	.	.	.	.
(4ddd	<	[4E)	<	4G#	<	(4ddd	<	V7
=308	=308	=308	=308	=308	=308	=308	=308	=308
2ccc#	.	4E]	.	4A	.	2ccc#	.	V(64)
.	.	4A	.	4c#	.	.	.	.
4bb	.	4G#	.	[4e)	.	4bb	.	V6
=309	=309	=309	=309	=309	=309	=309	=309	=309
2aan	.	2F#X	.	4e]	.	2aan	.	#viio6/ii
.	.	.	.	[2d#X	[[	.	.	.
4bb	[[	4F#	[[	.	.	4bb	[[	V64/V
=310	=310	=310	=310	=310	=310	=310	=310	=310
2aa	>	2E	>	4d#]	>	2aa	>	V(4)
.	.	.	.	4e	.	.	.	.
4gg#)	]]	4e	]]	[4B	]]	4gg#)	]]	V64
=311	=311	=311	=311	=311	=311	=311	=311	=311
(2ggn	<	2E	<	(4B]	<	(2ggn	<	v7
.	.	.	.	4dn	.	.	.	.
4aa	[[	[4E	[[	4c#	[[	4aa	[[	I6
=312	=312	=312	=312	=312	=312	=312	=312	=312
2ggn	>	4E]	>	4c#	>	2ggn	>	viio6
.	.	4D	.	4d	.	.	.	.
4ff#)	]]	[4D	]]	[4A)	]]	4ff#)	]]	IV
=313	=313	=313	=313	=313	=313	=313	=313	=313
2fff#	.	(4D]	.	2A]	.	2fff#	.	.
.	.	4C#)	.	.	.	.	.	.
(4fff#	.	[4D	.	[4A	.	(4fff#	.	.
=314	=314	=314	=314	=314	=314	=314	=314	=314
2eee	<	(4D]	<	2A]	<	2eee	<	IV(+2)
.	.	4C#	.	.	.	.	.	.
4fff#	.	4D	.	[4a	.	4fff#	.	IV
=315	=315	=315	=315	=315	=315	=315	=315	=315
2ccc#	.	4D#X	.	2a]	.	2ccc#	.	I64
.	.	4E	.	.	.	.	.	.
4ddd)	[[	4E#X	[[	4B 4g#	[[	4ddd)	[[	#viio7/vi
=316	=316	=316	=316	=316	=316	=316	=316	=316
*	*	*	*	*^	*	*	*	*
(4ddd	>	4F#	>	(4a	2.A	>	(4ddd	>	IV6
4ccc#	.	4Gn	.	4e	.	.	4ccc#	.	V2/IV
8dddL	.	8F#L	.	8f#L	.	.	8dddL	.	IV6
8eeeJ)	]]	8EnJ)	]]	8gnJ)	.	.	8eeeJ)	]]	v
*	*	*	*	*v	*v	*	*	*	*
=317	=317	=317	=317	=317	=317	=317	=317	=317
2fff#	<	4E	<	(2A	] <	2fff#	<	IV
.	.	4Dn	.	.	.	.	.	.
(4fff#	.	([4D	.	4a	.	(4fff#	.	.
=318	=318	=318	=318	=318	=318	=318	=318	=318
2eee	.	4D]	.	2A	.	2eee	.	I6
.	.	4C#	.	.	.	.	.	.
4fff#	[[	4D	[[	4a	[[	4fff#	[[	IV
=319	=319	=319	=319	=319	=319	=319	=319	=319
2ccc#	>	4D#X	>	4A	>	2ccc#	>	V(64)
.	.	4E)	.	4a	.	.	.	.
8eeeL	.	4E	]]	4B) 4g#X	]]	8eeeL	.	V
8dddJ)	]]	.	.	.	.	8dddJ)	]]	.
=320	=320	=320	=320	=320	=320	=320	=320	=320
4r	.	4r	.	4r	.	4r	.	.
4ccc#	pp	(8EL	pp	4A 4e	pp	4ccc#	pp	V(64)
.	.	8A	.	.	.	.	.	.
4r	.	8G#	.	4r	.	4r	.	.
.	.	8AJ	.	.	.	.	.	.
=321	=321	=321	=321	=321	=321	=321	=321	=321
2.r	.	8BL	.	2.r	.	2.r	.	.
.	.	8c#	.	.	.	.	.	.
.	.	8d	.	.	.	.	.	.
.	.	8e	.	.	.	.	.	.
.	.	8f#	.	.	.	.	.	.
.	.	8eJ)	.	.	.	.	.	.
=322	=322	=322	=322	=322	=322	=322	=322	=322
4r	.	4e	.	4r	.	4r	.	.
!	!	!	!	!	!	!LO:TX:a:t=pizz.	!	!
(8eL	pp	2a	.	(8gg#L	pp	4A 4e	.	.
8f#	.	.	.	8aa	.	.	.	.
8e	.	.	.	8gg#	.	4r	.	.
8dJ)	.	.	.	8ff#J)	.	.	.	.
=323	=323	=323	=323	=323	=323	=323	=323	=323
(8dL	.	2.r	.	(8ff#L	.	2.r	.	V7
8c#	.	.	.	8ee	.	.	.	.
8d	.	.	.	8ff#	.	.	.	.
8G#	.	.	.	8b	.	.	.	.
8A	.	.	.	8cc#	.	.	.	.
8BJ)	.	.	.	8ddJ)	.	.	.	.
=324	=324	=324	=324	=324	=324	=324	=324	=324
!	!	!	!	!	!	!LO:TX:a:t=arco	!	!
(4A	.	4r	.	4cc#	.	4r	.	I\\
!	!	!LO:TX:a:t=pizz.	!	!	!	!	!	!
2c#)	.	4A 4e	.	2ee	.	(8eeL	.	I
.	.	.	.	.	.	8aa	.	.
.	.	4r	.	.	.	8gg#	.	.
.	.	.	.	.	.	8aaJ	.	.
=325	=325	=325	=325	=325	=325	=325	=325	=325
4r	.	2.r	.	2.r	.	8bbL	.	.
.	.	.	.	.	.	8ccc#	.	.
8r	.	.	.	.	.	8ddd	.	.
(8AAL	pp	.	.	.	.	8eee	.	.
8GG#	.	.	.	.	.	8fff#	.	.
8AAJ	.	.	.	.	.	8eeeJ)	.	.
=326	=326	=326	=326	=326	=326	=326	=326	=326
!	!	!	!	!	!	!LO:TX:b:i:t=cresc.	!	!
8BBL	.	4r	.	4r	.	(4eee	.	.
8C#J)	.	.	.	.	.	.	.	.
!	!	!LO:TX:b:i:t=cresc.	!	!	!	!	!	!
!LO:TX:b:i:t=cresc.	!	!LO:TX:a:t=arco	!	!LO:TX:b:i:t=cresc.	!	!	!	!
(8C#L	.	(8eL	.	(8gg#L	.	4aaa	.	I6
8BB	.	8f#	.	8aa	.	.	.	.
8C#	.	8e	.	8gg#	.	8ggg#L	.	.
8DJ)	.	8dJ)	.	8ff#J)	.	8fff#J)	.	.
=327	=327	=327	=327	=327	=327	=327	=327	=327
!LO:TX:b:i:t=poco  a  poco	!	!LO:TX:b:i:t=poco  a  poco	!	!LO:TX:b:i:t=poco  a  poco	!	!LO:TX:b:i:t=poco  a  poco	!	!
(8DL	.	(8dL	.	(8ff#L	.	(8fff#L	.	.
8EJ)	.	8c#	.	8ee	.	8eee	.	V
8EL	.	8d	.	8ff#	.	8fff#	.	.
8E	.	8G#	.	8b	.	8bb	.	.
8E	.	8A	.	8cc#	.	8ccc#	.	.
8EJ	.	8BJ)	.	8ddJ)	.	8dddJ)	.	.
=328	=328	=328	=328	=328	=328	=328	=328	=328
8A'L	.	4E'	.	4cc#'	.	4ccc#'	.	I
8c#'	.	.	.	.	.	.	.	.
8e'	.	4A'	.	4cc#'	.	4ccc#'	.	.
8d'	.	.	.	.	.	.	.	.
8c#'	.	4r	.	4r	.	4r	.	.
8B'J	.	.	.	.	.	.	.	.
=329	=329	=329	=329	=329	=329	=329	=329	=329
8A'L	.	4A' 4e	.	4cc#'	.	4ccc#'	.	.
8G#'	.	.	.	.	.	.	.	.
8A'	.	4A' 4e	.	4cc#'	.	4ccc#'	.	.
8Gn'	.	.	.	.	.	.	.	.
8F#'	.	4r	.	4r	.	4r	.	.
8E'J	.	.	.	.	.	.	.	.
=330	=330	=330	=330	=330	=330	=330	=330	=330
8D'L	.	8A'L	.	4f#'	.	4fff#'	.	IV
8C#'	.	8c#'	.	.	.	.	.	.
8D'	.	8d'	.	4ff#'	.	4fff#'	.	.
8C#'	.	8c#'	.	.	.	.	.	.
8BB'	.	8B'	.	4r	.	4r	.	.
8AA'J	.	8A'J	.	.	.	.	.	.
=331	=331	=331	=331	=331	=331	=331	=331	=331
8GG#'L	.	8G#'L	.	4b'	.	4eee'	.	V6
8D#X'	.	8d#X'	.	.	.	.	.	.
8E'	.	8e'	.	4g#' 4b	.	4eee'	.	.
8Dn'	.	8dn'	.	.	.	.	.	.
8C#'	.	8c#'	.	4r	.	4r	.	.
8BB'J	.	8B'J	.	.	.	.	.	.
=332	=332	=332	=332	=332	=332	=332	=332	=332
!LO:TX:a:i:t=piu cresc.	!	!	!	!	!	!	!	!
!LO:TX:b:i:t=piu cresc.	!	!LO:TX:a:i:t=piu cresc.	!	!	!	!LO:TX:b:i:t=piu cresc.	!	!
4C#'	.	4E'	.	8a'L	.	8aa'L	.	I6
.	.	.	.	8cc#'	.	8ccc#'	.	.
4C#'	.	4c#'	.	8ee'	.	8eee'	.	.
.	.	.	.	8dd'	.	8ddd'	.	.
4r	.	4r	.	8cc#'	.	8ccc#'	.	.
.	.	.	.	8b'J	.	8bb'J	.	.
=333	=333	=333	=333	=333	=333	=333	=333	=333
4F#'	.	4c#'	.	8a'L	.	8aa'L	.	vi
.	.	.	.	8g#'	.	8gg#'	.	.
4F#'	.	4c#'	.	8a'	.	8aa'	.	.
.	.	.	.	8gn'	.	8ggn'	.	.
4r	.	4r	.	8f#'	.	8ff#'	.	.
.	.	.	.	8e'J	.	8ee'J	.	.
=334	=334	=334	=334	=334	=334	=334	=334	=334
!	!	!LO:TX:a:i:t=stacc.	!	!	!	!LO:TX:b:i:t=stacc.	!	!
4BB'	.	4B' 4f#	.	8dL	.	8ddL	.	ii
.	.	.	.	8cc#	.	8ccc#	.	.
4BB'	.	4B' 4f#	.	8dd	.	8ddd	.	.
.	.	.	.	8cc#	.	8ccc#	.	.
4r	.	4r	.	8b	.	8bb	.	.
.	.	.	.	8aJ	.	8aaJ	.	.
=335	=335	=335	=335	=335	=335	=335	=335	=335
4E'	.	4B' 4e	.	8g#XL	.	8gg#XL	.	V
.	.	.	.	8dd#X	.	8ddd#X	.	.
8EL	.	8BL 8e	.	8ee	.	8eee	.	.
8EE	.	8E	.	8ddn	.	8dddn	.	.
8FF#	.	8F#	.	8cc#	.	8ccc#	.	.
8GG#J	.	8G#J	.	8bJ	.	8bbJ	.	.
=336	=336	=336	=336	=336	=336	=336	=336	=336
(8AAL	f	(8AL	f	(8cc#L	f	(4.aa	f	I\\
8EE	.	8E	.	8e	.	.	.	.
8C#J)	.	8c#J)	.	8aJ)	.	.	.	.
8r	.	(8c#L	.	(8cc#L	.	8eeL	.	I6
4r	.	8E	.	8e	.	8ccc#)	.	.
.	.	8AJ)	.	8aJ)	.	8aa'J	.	.
=337	=337	=337	=337	=337	=337	=337	=337	=337
(8BBL	sf	(8BL	sf	(8ddL	sf	(4.bb	sf	V43
8GG#	.	8G#	.	8g#	.	.	.	.
8DJ)	.	8dJ)	.	8bJ)	.	.	.	.
8r	.	(8dL	.	(8ddL	.	8gg#L	.	.
4r	.	8G#	.	8g#	.	8ddd)	.	.
.	.	8BJ)	.	8bJ)	.	8bb'J	.	.
=338	=338	=338	=338	=338	=338	=338	=338	=338
(8C#L	sf	(8c#L	sf	(8eeL	sf	(4.ccc#	sf	I6
8AA	.	8A	.	8a	.	.	.	.
8EJ)	.	8eJ)	.	8cc#J)	.	.	.	.
8r	.	(8eL	.	(8eeL	.	8aa	.	.
4r	.	8A	.	8a	.	8eee)	.	.
.	.	8c#J)	.	8cc#J)	.	8ccc#'	.	.
=339	=339	=339	=339	=339	=339	=339	=339	=339
(8DL	sf	(8dL	sf	(8fnL	sf	(4.ddd	sf	#viio43
8BB	.	8B	.	8G#	.	.	.	.
8FnJ)	.	8fnJ)	.	8dJ)	.	.	.	.
(8G#L	.	(8ddL	.	(8ffnL	.	8bbL	.	.
8g#	.	8b	.	8dd	.	8fffn)	.	.
8aJ)	.	8bJ)	.	8ffJ)	.	8ddd'J	.	.
=340	=340	=340	=340	=340	=340	=340	=340	=340
!LO:TX:b:i:t=dim.	!	!LO:TX:b:i:t=dim.	!	!LO:TX:b:i:t=dim.	!	!LO:TX:b:i:t=dim.	!	!
4a'	.	4cc#'	.	4ee'	.	4eee'	.	I
4a'	.	4cc#'	.	4ee'	.	4eee'	.	.
4g#'	.	4dd'	.	4ee'	.	4fffn'	.	V65(+b2)
=341	=341	=341	=341	=341	=341	=341	=341	=341
4a'	.	4cc#'	.	4ee'	.	4eee'	.	I
4a'	.	4ee'	.	4ccc#'	.	4eee'	.	.
4g#'	.	4ee'	.	4ddd'	.	4fffn'	.	V65(+b2)
=342	=342	=342	=342	=342	=342	=342	=342	=342
4a'	p	4ee'	p	4ccc#'	p	4eee'	p	I
4a'	.	4cc#'	.	4ee'	.	4eee'	.	.
4g#'	.	4dd'	.	4ee'	.	4fff#X'	.	V65(2)
=343	=343	=343	=343	=343	=343	=343	=343	=343
!LO:TX:b:i:t=piu p	!	!LO:TX:b:i:t=piu p	!	!LO:TX:b:i:t=piu p	!	!LO:TX:b:i:t=piu p	!	!
4a'	.	4cc#'	.	4ee'	.	4eee'	.	I
4a'	.	4ee'	.	4ccc#'	.	4eee'	.	.
4g#'	.	4ee'	.	4ddd'	.	4fff#'	.	V65(2)
=344	=344	=344	=344	=344	=344	=344	=344	=344
4a	pp	4ee	pp	4ccc#	pp	4eee	pp	I
4r	.	4r	.	4r	.	4r	.	.
4r	.	4r	.	4r	.	4r	.	.
=345	=345	=345	=345	=345	=345	=345	=345	=345
4a	.	4cc#	.	4A	.	4aaa	.	.
4r	.	4r	.	4r	.	4r	.	.
4r	.	4r	.	4r	.	4r	.	.
=346	=346	=346	=346	=346	=346	=346	=346	=346
4f#	.	[2.F#	.	4f#	.	4a	.	vi
4r	.	.	.	4r	.	4r	.	.
4r	.	.	.	4r	.	4r	.	.
=347	=347	=347	=347	=347	=347	=347	=347	=347
4r	.	4F#]	.	4r	.	4r	.	.
!LO:TX:b:i:t=cresc.	!	!LO:TX:b:i:t=cresc.	!	!LO:TX:b:i:t=cresc.	!	!LO:TX:b:i:t=cresc.	!	!
(4AA	.	(4A	.	(2A	.	(4a	.	.
4FF#)	.	4F#)	.	.	.	4f#)	.	.
=348	=348	=348	=348	=348	=348	=348	=348	=348
4DD'	.	4D'	.	4A')	.	4d'	.	IV
2DD#Xt	.	2D#Xt	.	2d#Xt	.	2d#Xt	.	#viio/V
=349	=349	=349	=349	=349	=349	=349	=349	=349
!	!LO:DY:a	!	!	!	!	!	!	!
4EE'	f f	4E'	.	4e'	f	4e'	f	V
4E'	.	4e'	.	4ee'	.	4ee'	.	.
4r	.	4r	.	4r	.	4r	.	.
=350	=350	=350	=350	=350	=350	=350	=350	=350
4AA'	.	4A'	.	4A'	.	4a'	.	I\\
4A'	.	4a'	.	4a'	.	4aa'	.	.
4r	.	4r	.	4r	.	4r	.	.
=351	=351	=351	=351	=351	=351	=351	=351	=351
4E'	.	4E'	.	4e'	.	4ee'	.	V
[2e	fp	[2e	fp	[2ee	fp	(4eee	fp	.
!	!	!	!	!	!	!LO:TX:b:i:t=dol.	!	!
.	.	.	.	.	.	8gg#L	.	.
.	.	.	.	.	.	8aaJ)	.	.
=352	=352	=352	=352	=352	=352	=352	=352	=352
2e]	.	2e]	.	2ee]	.	(8aa#XL	.	.
.	.	.	.	.	.	8bbJ)	.	.
.	.	.	.	.	.	(8bbL	.	.
(8gg#L	.	((4e 4b	.	((4g# 4ee	.	8ddd	.	.
8aaJ	.	.	.	.	.	8bbJ)	.	.
=353	=353	=353	=353	=353	=353	=353	=353	=353
4bb)	.	4e)) 4cc#	.	4a)) 4ee	.	(8bbL	.	V(64)
.	.	.	.	.	.	8aanJ)	.	.
4r	.	[2e [2cc#	.	[2a [2ee	.	(8aaL	.	.
.	.	.	.	.	.	8gg#	.	.
(8aaL	.	.	.	.	.	8aa	.	.
8bbJ	.	.	.	.	.	8bbJ)	.	.
=354	=354	=354	=354	=354	=354	=354	=354	=354
4ccc#)	.	4e] 4cc#]	.	4a] 4ee]	.	(8bbL	.	.
.	.	.	.	.	.	8ccc#J)	.	.
4r	.	[2e [2cc#	.	[2a [2ee	.	(8ccc#L	.	.
.	.	.	.	.	.	8aa	.	.
(8aaL	.	.	.	.	.	8eee	.	.
8bbJ	.	.	.	.	.	8ccc#J)	.	.
=355	=355	=355	=355	=355	=355	=355	=355	=355
4ccc#)	.	4e] 4cc#]	.	4a] 4ee]	.	(8ccc#L	.	.
.	.	.	.	.	.	8bbJ)	.	.
4r	.	[2e [2b	.	[2g# [2ee	.	(8bbL	.	V
.	.	.	.	.	.	8aa#X	.	.
(8bbL	.	.	.	.	.	8bb	.	.
8ccc#J	.	.	.	.	.	8ccc#J)	.	.
=356	=356	=356	=356	=356	=356	=356	=356	=356
2ddd)	.	8eL] 8b]	.	8g#L] 8ee]	.	2ddd	.	V7
.	.	8E	.	8g#	.	.	.	.
.	.	8F#	.	8a	.	.	.	.
.	.	8E	.	8g#	.	.	.	.
(4ddd	<	8F#	<	8a	<	(4ddd	<	V65
.	.	8G#J	.	8bJ	.	.	.	.
=357	=357	=357	=357	=357	=357	=357	=357	=357
2ccc#	.	4A	.	8eL	.	2ccc#	.	vi6
.	.	.	.	8f#	.	.	.	.
.	.	4a	.	8f#	.	.	.	.
.	.	.	.	8e	.	.	.	.
4bb	.	4G#	.	8f#	.	4bb	.	viio
.	.	.	.	8g#J	.	.	.	.
=358	=358	=358	=358	=358	=358	=358	=358	=358
2aa	.	4F#	.	8d#XL	.	2aan	.	viio65/ii
.	.	.	.	8cc#J	.	.	.	.
.	.	4f#	.	8cc#L	.	.	.	.
.	.	.	.	8b	.	.	.	.
4bb	[[	4F# 4A	[[	8cc#	.	4bb	[[	V64/V
.	.	.	.	8dd#XJ	[[	.	.	.
=359	=359	=359	=359	=359	=359	=359	=359	=359
2aa	>	(8F#L	>	(8dd#XL	>	2aa	>	V(4)
.	.	8E)	.	8ee)	.	.	.	.
.	.	8E	.	8b'	.	.	.	.
.	.	8E	.	8a'	.	.	.	.
4gg#)	]]	8E	.	8b'	.	4gg#)	]]	V
.	.	8EJ	]]	8e'J	]]	.	.	.
=360	=360	=360	=360	=360	=360	=360	=360	=360
(2ggn	<	8EL	<	8bL	<	(2ggn	<	viio6/IV
.	.	8E	.	8cc#	.	.	.	.
.	.	8EJ	.	8cc#	.	.	.	.
.	.	8DL	.	8ddn	.	.	.	.
4aa	[[	8C#	.	8dd#X	.	4aa	[[	I6
.	.	8C#J	[[	8eeJ	[[	.	.	.
=361	=361	=361	=361	=361	=361	=361	=361	=361
2ggn	>	8C#L	>	8eeL	>	2ggn	>	V65/IV
.	.	8C#	.	8a	.	.	.	.
.	.	8E	.	8b	.	.	.	.
.	.	8E	.	8cc#	.	.	.	.
4ff#)	]]	8D	.	8ddn	.	4ff#)	]]	IV
.	.	8DJ	]]	8aJ	]]	.	.	.
=362	=362	=362	=362	=362	=362	=362	=362	=362
2fff#	.	8DL	.	8aL	.	2fff#	.	vi64
.	.	8D	.	8b	.	.	.	.
.	.	8C#	.	8a	.	.	.	.
.	.	8C#	.	8aa	.	.	.	.
(4fff#	<	8D	<	8gg#	<	(4fff#	<	IV
.	.	8DJ	.	8aaJ	.	.	.	.
=363	=363	=363	=363	=363	=363	=363	=363	=363
2eee	.	8DL	.	8aL	.	2eee	.	I6
.	.	8D	.	8b	.	.	.	.
.	.	8C#	.	8a	.	.	.	.
.	.	8C#	.	8aa	.	.	.	.
4fff#	.	8D	.	8gg#	.	4fff#	.	IV
.	.	8DJ	.	8aaJ	.	.	.	.
=364	=364	=364	=364	=364	=364	=364	=364	=364
2ccc#	.	8D#XL	.	8aaL	.	2ccc#	.	I64
.	.	8D#	.	8a	.	.	.	.
.	.	8E	.	8a	.	.	.	.
.	.	8E	.	8b	.	.	.	.
4ddd)	[[	8E#X	.	8g#	.	4ddd)	[[	#viio7/vi
.	.	8E#J	[[	8bJ	[[	.	.	.
=365	=365	=365	=365	=365	=365	=365	=365	=365
(4ddd	>	8E#XL	>	8bL	>	(4ddd	>	.
.	.	8F#	.	8a	.	.	.	.
4ccc#	.	8F#	.	8a	.	4ccc#	.	vi
.	.	8Gn	.	8A	.	.	.	.
8dddL	.	8F#	.	8a	.	8dddL	.	IV6
8eeeJ)	]]	8EnJ	]]	8gnJ	]]	8eeeJ)	]]	v
=366	=366	=366	=366	=366	=366	=366	=366	=366
2fff#	<	8EL	<	8f#L	<	2fff#	<	IV
.	.	8D	.	8ff#	.	.	.	.
.	.	8D	.	8g#X	.	.	.	.
.	.	8D	.	8a	.	.	.	.
(4fff#	.	8D	.	8aa	.	(4fff#	.	.
.	.	8DJ	.	8aJ	.	.	.	.
=367	=367	=367	=367	=367	=367	=367	=367	=367
2eee	.	8DL	.	8aaL	.	2eee	.	I6
.	.	8C#	.	8aJ	.	.	.	.
.	.	8C#	.	8g#L	.	.	.	.
.	.	8C#	.	8a	.	.	.	.
4fff#	[[	8D	.	8a	.	4fff#	[[	IV
.	.	8DJ	[[	8AJ	[[	.	.	.
=368	=368	=368	=368	=368	=368	=368	=368	=368
2ccc#	>	8D#XL	>	8aaL	>	2ccc#	>	V(64)
.	.	8D#	.	8ff#	.	.	.	.
.	.	8E	.	8ee	.	.	.	.
.	.	8E	.	8cc#	.	.	.	.
8eeeL	.	8E	.	8g#	.	8eeeL	.	V7
8dddJ)	]]	8EJ	]]	8bJ	]]	8dddJ)	]]	.
=369	=369	=369	=369	=369	=369	=369	=369	=369
4r	.	4r	.	4r	.	4r	.	.
4ccc#	pp	(8EL	pp	(8eL	pp	4ccc#	pp	I64
.	.	8A	.	8a	.	.	.	.
4r	.	8G#	.	8g#	.	4r	.	.
.	.	8AJ	.	8aJ	.	.	.	.
=370	=370	=370	=370	=370	=370	=370	=370	=370
2.r	.	8BL	.	8bL	.	2.r	.	.
.	.	8c#	.	8cc#	.	.	.	.
.	.	8d	.	8dd	.	.	.	.
.	.	8e	.	8ee	.	.	.	.
.	.	8f#	.	8ff#	.	.	.	.
*clefC4	*	*	*	*	*	*	*	*
=371	=371	=371	=371	=371	=371	=371	=371	=371
4ryy	.	(4e	.	(4ee	.	4ryy	.	.
(8g#L	pp	2a)	.	2aa)	.	(8eL	pp	.
8a	.	.	.	.	.	8f#	.	.
8g#	.	.	.	.	.	8e	.	.
8f#J)	.	.	.	.	.	8dJ)	.	.
=372	=372	=372	=372	=372	=372	=372	=372	=372
(8f#L	.	2.r	.	2.r	.	(8dL	.	.
8e	.	.	.	.	.	8c#	.	.
8f#	.	.	.	.	.	8d	.	.
8B	.	.	.	.	.	8G#	.	V
8c#	.	.	.	.	.	8A	.	.
8dJ)	.	.	.	.	.	8BJ)	.	.
=373	=373	=373	=373	=373	=373	=373	=373	=373
(4c#	.	(4A	.	4r	.	4A	.	vi
2e)	.	4c#	.	(8eL	.	(8eeL	.	V(64)
.	.	.	.	8a	.	8aa	.	.
.	.	4E	.	8g#	.	8gg#	.	V
.	.	.	.	8aJ	.	8aaJ	.	.
=374	=374	=374	=374	=374	=374	=374	=374	=374
4r	.	8DL	.	8bL	.	8bbL	.	ii6
.	.	8A	.	8cc#	.	8ccc#	.	I
8r	.	8G#	.	8dd	.	8ddd	.	viio
(8C#L	.	8Gn	.	8ee	.	8eee	.	viio/IV
8D	.	8F#	.	8ff#	.	8fff#	.	IV
8EJ)	.	8G#XJ)	.	8eeJ)	.	8eeeJ)	.	V
=375	=375	=375	=375	=375	=375	=375	=375	=375
!LO:TX:b:i:t=cresc.	!	!LO:TX:b:i:t=cresc.	!	!LO:TX:b:i:t=cresc.	!	!LO:TX:b:i:t=cresc.	!	!
(8EEL	.	2A	.	8cc#L	.	(4eee	.	I\\
8AA	.	.	.	8c#J	.	.	.	.
8GG#	.	.	.	8cc#L	.	4aaa	.	I
8AAJ)	.	.	.	8cc#	.	.	.	.
8BBL	.	4A	.	8d	.	8ggg#L	.	ii7
8BBJ	.	.	.	8ddJ	.	8fff#J)	.	.
=376	=376	=376	=376	=376	=376	=376	=376	=376
!LO:TX:b:i:t=poco a poco	!	!	!	!	!	!	!	!
!LO:TX:a:i:t=poco a poco	!	!LO:TX:a:i:t=poco a poco	!	!	!	!LO:TX:b:i:t=poco a poco	!	!
8C#L	.	(8AL	.	(8ddL	.	(8fff#L	.	I6(64)
8C#J	.	8e	.	8cc#	.	8eee	.	I6
8DL	.	8d)	.	8b)	.	8fff#	.	ii6
8E	.	(8d	.	(8b	.	8bb	.	V7
8E	.	8c#	.	8a	.	8ccc#	.	V(64)
8EEJ	.	8BJ)	.	8g#J)	.	8dddJ)	.	V7
=377	=377	=377	=377	=377	=377	=377	=377	=377
!LO:TX:b:t=col punto d'arco	!	!	!	!	!	!	!	!
!LO:TX:a:t=col punto d'arco	!	!	!	!	!	!	!	!
8AA'L	.	8A'L	.	4a'	.	4ccc#'	.	I\\
8C#'	.	8c#'	.	.	.	.	.	.
8E'	.	8e'	.	4a'	.	4ccc#'	.	.
8D'	.	8d'	.	.	.	.	.	.
8C#'	.	8c#'	.	4r	.	4r	.	.
8BB'J	.	8B'J	.	.	.	.	.	.
=378	=378	=378	=378	=378	=378	=378	=378	=378
8AA'L	.	8A'L	.	4ee'	.	4ccc#'	.	I
8GG#'	.	8G#'	.	.	.	.	.	.
8AA'	.	8A'	.	4ee'	.	4ccc#'	.	.
8GGn'	.	8Gn'	.	.	.	.	.	.
8FF#'	.	8F#'	.	4r	.	4r	.	.
8EE'J	.	8E'J	.	.	.	.	.	.
=379	=379	=379	=379	=379	=379	=379	=379	=379
8DDL	.	8DL	.	4f#'	.	4fff#'	.	IV
8C#	.	8c#	.	.	.	.	.	.
8D	.	8d	.	4ff#'	.	4fff#'	.	.
8C#	.	8c#	.	.	.	.	.	.
8BB	.	8B	.	4r	.	4r	.	.
8AAJ	.	8AJ	.	.	.	.	.	.
=380	=380	=380	=380	=380	=380	=380	=380	=380
8GG#XL	.	8G#XL	.	4b'	.	4eee'	.	V6
8BB	.	8B	.	.	.	.	.	.
8E	.	8e	.	4b' 4gg#	.	4eee'	.	.
8D	.	8d	.	.	.	.	.	.
8C#	.	8c#	.	4r	.	4r	.	.
8BBJ	.	8BJ	.	.	.	.	.	.
=381	=381	=381	=381	=381	=381	=381	=381	=381
!	!	!LO:TX:a:i:t=piu cresc	!	!	!	!LO:TX:a:t=col punto d'arco	!	!
!LO:TX:b:i:t=piu cresc	!	!LO:TX:b:i:t=piu cresc	!	!LO:TX:b:t=col punto d'arco	!	!LO:TX:b:i:t=piu cresc	!	!
4C#'	.	4c#'	.	8a'L	.	8aa'L	.	I6
.	.	.	.	8cc#'	.	8ccc#'	.	.
4C#'	.	4c#'	.	8ee'	.	8eee'	.	.
.	.	.	.	8dd'	.	8ddd'	.	.
4r	.	4r	.	8cc#'	.	8ccc#'	.	.
.	.	.	.	8b'J	.	8bb'J	.	.
=382	=382	=382	=382	=382	=382	=382	=382	=382
4FF#'	.	4F#' 4c#	.	8a'L	.	8aa'L	.	vi
.	.	.	.	8g#'	.	8gg#'	.	.
4FF#'	.	4F#' 4c#	.	8a'	.	8aa'	.	.
.	.	.	.	8gn'	.	8ggn'	.	.
4r	.	4r	.	8f#'	.	8ff#'	.	.
.	.	.	.	8e'J	.	8ee'J	.	.
=383	=383	=383	=383	=383	=383	=383	=383	=383
4BB'	.	4F#'	.	8dL	.	8ddL	.	ii
.	.	.	.	8cc#	.	8ccc#	.	.
4BB'	.	4f#'	.	8dd	.	8ddd	.	.
.	.	.	.	8cc#	.	8ccc#	.	.
4r	.	4r	.	8b	.	8bb	.	.
.	.	.	.	8aJ	.	8aaJ	.	.
=384	=384	=384	=384	=384	=384	=384	=384	=384
4E'	.	4B' 4e	.	8g#XL	.	8gg#XL	.	V7
.	.	.	.	8b	.	8bb	.	.
4EE'	.	4G#' 4e	.	8ee	.	8eee	.	.
.	.	.	.	8dd	.	8ddd	.	.
4r	.	4r	.	8cc#	.	8ccc#	.	.
.	.	.	.	8bJ	.	8bbJ	.	.
=385	=385	=385	=385	=385	=385	=385	=385	=385
(8AAL	f	(8eL	f	(8cc#L	f	(8aaL	f	I\\
8A	.	8c#	.	8e	.	8a	.	I[I
8AAJ)	.	8eJ)	.	8cc#J)	.	8aaJ)	.	.
8r	.	(8c#L	.	(8eL	.	(8eeL	.	.
4a	.	8A	.	8c#	.	8ccc#	.	.
.	.	8c#J)	.	8eJ)	.	8aaJ)	.	.
=386	=386	=386	=386	=386	=386	=386	=386	=386
(8AAL	.	(8dL	.	(8fnL	.	(8bbL	.	#viio43
8A	.	8B	.	8d	.	8gg#	.	.
8AAJ)	.	8dJ)	.	8fJ)	.	8bbJ)	.	.
8r	.	(8fnL	.	(8ddL	.	(8gg#L	.	.
4a	.	8d	.	8b	.	8ddd	.	.
.	.	8fJ)	.	8ddJ)	.	8bbJ)	.	.
=387	=387	=387	=387	=387	=387	=387	=387	=387
(8AAL	.	(8cc#L	.	(8eeL	.	(8ccc#L	.	I6
8A	.	8e	.	8cc#	.	8aa	.	.
8AAJ)	.	8cc#J)	.	8eeJ)	.	8ccc#J)	.	.
8r	.	(8cc#L	.	(8eeL	.	(8aaL	.	.
4a	.	8e	.	8cc#	.	8eee	.	.
.	.	8cc#J)	.	8eeJ)	.	8ccc#J)	.	.
=388	=388	=388	=388	=388	=388	=388	=388	=388
(8AAL	.	(8bL	.	(8ffnL	.	(8dddL	.	#viio65
8A	.	8g#	.	8b	.	8bb	.	.
8AAJ)	.	8ddJ)	.	8g#J)	.	8fffnJ)	.	.
8r	.	(8ddL	.	(8ffL	.	(8bbL	.	.
4a	.	8g#	.	8b	.	8fff	.	#viio
.	.	8bJ)	.	8ddJ)	.	8bbJ)	.	.
=389	=389	=389	=389	=389	=389	=389	=389	=389
!LO:TX:b:i:t=dim.	!	!LO:TX:b:i:t=dim.	!	!LO:TX:b:i:t=dim.	!	!LO:TX:b:i:t=dim.	!	!
8aL	.	8cc#L	.	8eeL	.	4eee'	.	I
(8a	.	(8cc#	.	(8ee	.	.	.	.
8g#	.	8dd	.	8ffn	.	4eee'	.	V6
8a	.	8cc#	.	8ee	.	.	.	.
8A	.	8dd	.	8ff	.	4fffn'	.	iv64
8aJ)	.	8cc#J)	.	8eeJ)	.	.	.	.
=390	=390	=390	=390	=390	=390	=390	=390	=390
(8g#L	.	(8ddL	.	(8ffnL	.	4eee'	.	I
8a	.	8cc#	.	8ee	.	.	.	.
8A	.	8dd	.	8ff	.	4eee'	.	.
8a	.	8cc#	.	8ee	.	.	.	.
8g#	.	8dd	.	8ff	.	4fffn'	.	iv64
8aJ)	.	8cc#J)	.	8eeJ)	.	.	.	.
=391	=391	=391	=391	=391	=391	=391	=391	=391
(8g#L	p	(8ddL	p	(8ff#XL	p	4eee'	p	I
8a	.	8cc#	.	8ee	.	.	.	.
8A	.	8dd	.	8ff#	.	4eee'	.	.
8a	.	8cc#	.	8ee	.	.	.	.
8g#	.	8dd	.	8ff#	.	4fff#X'	.	V(+2)
8aJ)	.	8cc#J)	.	8eeJ)	.	.	.	.
=392	=392	=392	=392	=392	=392	=392	=392	=392
!LO:TX:b:i:t=piu p	!	!LO:TX:b:i:t=piu p	!	!LO:TX:b:i:t=piu p	!	!LO:TX:b:i:t=piu p	!	!
(8g#L	.	(8ddL	.	(8ff#L	.	4eee'	.	I
8a	.	8cc#	.	8ee	.	.	.	.
8A	.	8dd	.	8ff#	.	4eee'	.	.
8a	.	8cc#	.	8ee	.	.	.	.
8g#	.	8dd	.	8ff#	.	4fff#'	.	V(+2)
8aJ)	.	8cc#J)	.	8eeJ)	.	.	.	.
=393	=393	=393	=393	=393	=393	=393	=393	=393
4a	pp	4cc#	pp	4ee	pp	4eee	pp	I
4r	.	4r	.	4r	.	4r	.	.
4r	.	4r	.	4r	.	4r	.	.
=394	=394	=394	=394	=394	=394	=394	=394	=394
4FF#	.	4F#	.	2.r	.	4aaa	.	vi
4r	.	4r	.	.	.	4r	.	.
4r	.	4r	.	.	.	4r	.	.
=395	=395	=395	=395	=395	=395	=395	=395	=395
[2.CCn	.	[2.Cn	.	4aa	.	[2.a	.	i6
.	.	.	.	4r	.	.	.	.
.	.	.	.	4r	.	.	.	.
=396	=396	=396	=396	=396	=396	=396	=396	=396
4CC]	.	4C]	.	4f#	.	4a]	.	vio64
!LO:TX:b:i:t=cresc.	!	!LO:TX:b:i:t=cresc.	!	!	!	!LO:TX:b:i:t=cresc.	!	!
4CCn	.	4Cn	.	4r	.	4a	.	.
4CC#X	.	4C#X	.	4r	.	4f#	.	vi64
=397	=397	=397	=397	=397	=397	=397	=397	=397
!	!	!	!	!LO:TX:b:i:t=cresc.	!	!	!	!
4DD	.	4D	.	4d	.	4d	.	IV
2DD#Xt	.	2D#Xt	.	2d#Xt	.	2d#Xt	.	#iv
16qqCC#/LL	.	16qqC#/LL	.	16qqc#/LL	.	16qqc#/LL	.	.
16qqDD#/JJ	.	16qqD#/JJ	.	16qqd#/JJ	.	16qqd#/JJ	.	.
=398	=398	=398	=398	=398	=398	=398	=398	=398
!	!LO:DY:a	!	!	!	!	!	!	!
4EE'	f f	4E'	.	4e'	f	4e'	f	V
4E'	.	4e'	.	4ee'	.	4ee'	.	.
4r	.	4r	.	4r	.	4r	.	.
=399	=399	=399	=399	=399	=399	=399	=399	=399
4AA'	.	4A'	.	4a'	.	4a'	.	I
4A'	.	4a'	.	4aa'	.	4aa'	.	.
4r	.	4r	.	4r	.	4r	.	.
=400	=400	=400	=400	=400	=400	=400	=400	=400
4E'	.	4e'	.	4e'	.	4ee'	.	V
4e'	.	4ee'	.	4ee'	.	4eee'	.	.
4r	.	4r	.	4r	.	4r	.	.
=401	=401	=401	=401	=401	=401	=401	=401	=401
4r	.	4r	.	4r	.	4r	.	.
4E	.	4E	.	4e	.	4ee	.	.
4e	.	4B 4g#	.	4ee	.	4eee	.	.
=402	=402	=402	=402	=402	=402	=402	=402	=402
4A	.	4c# 4a	.	4cc#	.	4ccc#	.	I
4r	.	4E	p	4e	p	4r	.	V
4r	.	4e	.	4ee	.	4r	.	.
=403	=403	=403	=403	=403	=403	=403	=403	=403
4r	.	4c#	.	4cc#	.	4r	.	I
4EE	ff	4E	ff	4e	ff	4ee	ff	V
4E	.	4e	.	4e 4b 4gg#	.	4eee	.	.
=404	=404	=404	=404	=404	=404	=404	=404	=404
4AA	.	4A	.	4e 4cc# 4aa	.	4a 4aa	.	I\\
4r	.	4r	.	4r	.	4r	.	.
4r;	.	4r;	.	4r;	.	4r;	.	.
==	==	==	==	==	==	==	==	==
*-	*-	*-	*-	*-	*-	*-	*-	*-
!!!system-decoration: [(s1,s2,s3,s4)]
